!!!!SEGMENT: pl-cz--iii-197--001-008_elsner-jozef--missa-c-op-22-agnus.krn
!!!cenid: 18xx:267
!!!COM: Elsner, Józef
!!!COM-rismID: pe30000957
!!!CDT: 1769/06/01-1854/04/18
!!!CNT: Polish
!!!OPR: Missa C op. 22
!!!OTL: Agnus
!!!OMV: 008
!!!PDT:
!!!AGN: Sacred; Mass
!!!YEC: Copyright 2022 Narodowy Instytut Fryderyka Chopina (https://polishscores.org)
!!!YEM: License CC-BY-4.0 (https://creativecommons.org/licenses/by/4.0)
!!!SMS-siglum: PL-CZ
!!!SMS-shelfmark: III-197
!!!SMS-shelfwork: 001-008 M
!!!NIFC-rismSourceID: 300000251
!!!NIFC-rismChildID: 300000251
!!!NIFC-islandoraID: pl-cz:36373
!!!URL-pdf-islandora: https://repozytorium.nifc.pl/islandora/object/pl-cz%3A36373/datastream/PDF/view
!!!URL-scan: https://polish.musicsources.pl/pl/lokalizacje/galeria/rekopisy/6865/1 @EN{Scan on Polish Music Sources Website} @PL{Skany w portalu Dziedzictwo Muzyki Polskiej w otwartym dostępie}
!!!IIIF:
!!!ONB-nifc: UWAGA: części Mszy: Kyrie, Gloria, Graduale, Credo, Offertorio, Sanctus, Benedictus, Agnus
!!!AIN: 2 bass 2 clrno 4 cor 1 empty 2 tenor 1 timpa
!!!OMD:
!!!OMD-mod: Adagio
!!!key: c
**kern	**dynam	**kern	**text	**mod-text	**dynam	**mod-dynam	**kern	**text	**mod-text	**dynam	**mod-dynam	**kern	**text	**mod-text	**dynam	**mod-dynam	**kern	**text	**mod-text	**dynam	**mod-dynam	**kern	**kern	**kern	**kern	**kern	**kern	**kern
*group4	*	*group3	*	*	*	*	*group3	*	*	*	*	*group3	*	*	*	*	*group3	*	*	*	*	*group2	*group1	*group1	*group1	*group1	*group1	*group1
*part12	*	*part11	*	*	*	*	*part10	*	*	*	*	*part9	*	*	*	*	*part8	*	*	*	*	*part7	*part6	*part5	*part4	*part3	*part2	*part1
*staff12	*	*staff11	*	*	*	*	*staff10	*	*	*	*	*staff9	*	*	*	*	*staff8	*	*	*	*	*staff7	*staff6	*staff5	*staff4	*staff3	*staff2	*staff1
*I"Baſso.	*	*I"Baſso 2do	*	*	*	*	*I"Baſso 1mo	*	*	*	*	*I"Tenore 2do	*	*	*	*	*I"Tenore 1mo	*	*	*	*	*I"Tympano in C G	*I"Clarino 2do in C.	*I"Clarino 1mo in C.	*I"Corno 2do in C.	*I"Corno 1mo in C.	*I"Corno 2do in F.	*I"Corno 1mo in F.
*mI"Basso	*	*mI"Basso II	*	*	*	*	*mI"Basso I	*	*	*	*	*mI"Tenore II	*	*	*	*	*mI"Tenore I	*	*	*	*	*mI"Timpani in C, G	*mI"Clarino II in C	*mI"Clarino I in C	*mI"Corno II in C	*mI"Corno I in C	*mI"Corno II in F	*mI"Corno I in F
*I'b	*	*I'B II	*	*	*	*	*I'B I	*	*	*	*	*I'T II	*	*	*	*	*I'T I	*	*	*	*	*I'timp in C, G	*I'clno II in C	*I'clno I in C	*I'cor II in C	*I'cor I in C	*I'cor II in F	*I'cor I in F
*Iempty	*	*Ibass	*	*	*	*	*Ibass	*	*	*	*	*Itenor	*	*	*	*	*Itenor	*	*	*	*	*Itimpa	*Iclrno	*Iclrno	*Icor	*Icor	*Icor	*Icor
*ICstr	*	*ICvox	*	*	*	*	*ICvox	*	*	*	*	*ICvox	*	*	*	*	*ICvox	*	*	*	*	*ICidio	*ICbras	*ICbras	*ICbras	*ICbras	*ICbras	*ICbras
*clefF4	*	*clefF4	*	*	*	*	*clefF4	*	*	*	*	*clefC4	*	*	*	*	*clefC4	*	*	*	*	*clefF4	*clefG2	*clefG2	*clefG2	*clefG2	*clefG2	*clefG2
*	*	*	*	*	*	*	*	*	*	*	*	*mclefGv2	*	*	*	*	*mclefGv2	*	*	*	*	*	*	*	*	*	*	*
*	*	*	*	*	*	*	*	*	*	*	*	*	*	*	*	*	*	*	*	*	*	*	*	*	*ITrd0c0	*ITrd0c0	*ITrd4c7	*ITrd4c7
*k[b-e-a-]	*	*k[b-e-a-]	*	*	*	*	*k[b-e-a-]	*	*	*	*	*k[b-e-a-]	*	*	*	*	*k[b-e-a-]	*	*	*	*	*k[]	*k[]	*k[]	*k[]	*k[]	*k[b-]	*k[b-]
*c:	*	*c:	*	*	*	*	*c:	*	*	*	*	*c:	*	*	*	*	*c:	*	*	*	*	*c:	*c:	*c:	*c:	*c:	*c:	*c:
*	*	*	*	*	*	*	*	*	*	*	*	*	*	*	*	*	*	*	*	*	*	*	*	*	*	*	*	*
*M3/4	*	*M3/4	*	*	*	*	*M3/4	*	*	*	*	*M3/4	*	*	*	*	*M3/4	*	*	*	*	*M3/4	*M3/4	*M3/4	*M3/4	*M3/4	*M3/4	*M3/4
=1	=1	=1	=1	=1	=1	=1	=1	=1	=1	=1	=1	=1	=1	=1	=1	=1	=1	=1	=1	=1	=1	=1	=1	=1	=1	=1	=1	=1
*	*	*	*	*	*	*	*2\right	*	*	*	*	*2\right	*	*	*	*	*2\right	*	*	*	*	*	*	*	*2\right	*2\right	*2\right	*2\right
!!LO:MO:ori
!!LO:TX:a:t=P:problem:all\right
!!LO:MO:end
!	!	!	!	!	!	!	!	!	!	!	!	!	!	!	!	!	!	!	!	!	!	!	!	!	!	!	!	!LO:SIC:v:o=2.a\
!LO:TX:a:B:t=Adagio:mod=	!	!LO:TX:a:B:t=Adago:mod=	!	!	!	!	!LO:TX:a:B:t=Adagio:mod=	!	!	!	!	!LO:TX:a:B:t=Adagio:mod=	!	!	!	!	!LO:TX:a:B:t=Adagio:mod=	!	!	!	!	!LO:TX:a:t=P:problem=brak skanu	!LO:TX:a:t=29.:mod=	!LO:TX:a:t=29.:mod=	!LO:TX:a:B:t=Adagio:mod=	!LO:TX:a:B:t=Adagio:mod=	!LO:TX:a:B:t=Adagio:mod=	!LO:TX:a:B:t=Adagio:mod=
[2.C/	.	2C/	A-	A-	.	.	2G\	A-	A-	.	.	2c\	A-	A-	.	.	2e-\	A-	A-	.	.	2.ryy	2.r	2.r	2cc\	2ee-X\	2e-X\	2.g\
.	.	4C/	-gnus	-gnus,	.	.	4F\	-gnus	-gnus,	.	.	4Bn\	-gnus	-gnus,	.	.	4d\	-gnus	-gnus,	.	.	.	.	.	4b\	4dd\	4d\	.
=2	=2	=2	=2	=2	=2	=2	=2	=2	=2	=2	=2	=2	=2	=2	=2	=2	=2	=2	=2	=2	=2	=2	=2	=2	=2	=2	=2	=2
*	*	*	*ij	*ij	*	*	*	*ij	*ij	*	*	*	*ij	*ij	*	*	*	*ij	*ij	*	*	*	*	*	*	*	*	*
2C/]	.	2C/	A-	A-	.	.	2E-\	A-	A-	.	.	(4c\	A-	A-	.	.	2c\	A-	A-	.	.	2.ryy	2.r	2.r	2cc\	2cc\	2c/	2g\
.	.	.	.	.	.	.	.	.	.	.	.	4G\)	.	.	.	.	.	.	.	.	.	.	.	.	.	.	.	.
4r	.	4GG/	-gnus	-gnus	.	.	4G\	-gnus	-gnus	.	.	4Bn\	-gnus	-gnus	.	.	4d\	-gnus	-gnus	.	.	.	.	.	4r	4r	4r	4r
*	*	*	*Xij	*Xij	*	*	*	*Xij	*Xij	*	*	*	*Xij	*Xij	*	*	*	*Xij	*Xij	*	*	*	*	*	*	*	*	*
=3	=3	=3	=3	=3	=3	=3	=3	=3	=3	=3	=3	=3	=3	=3	=3	=3	=3	=3	=3	=3	=3	=3	=3	=3	=3	=3	=3	=3
!LO:TX:a:t=7.:mod=	!	!	!	!	!	!	!	!	!	!	!	!	!	!	!	!	!	!	!	!	!	!	!	!	!LO:TX:a:t=7.:mod=	!LO:TX:a:t=7.:mod=	!LO:TX:a:t=7.:mod=	!LO:TX:a:t=7:mod=
!LO:N:vis=00	!	!	!	!	!	!	!	!	!	!	!	!	!	!	!	!	!	!	!	!	!	!	!	!	!LO:N:vis=00	!LO:N:vis=00	!LO:N:vis=00	!LO:N:vis=00
0.r	.	8.C/L	De-	De-	.	.	4G\	De-	De-	.	.	4c\	De-	De-	.	.	4e-\	De-	De-	.	.	2.ryy	2.r	2.r	0.r	0.r	0.r	0.r
.	.	16E-/Jk	.	.	.	.	.	.	.	.	.	.	.	.	.	.	.	.	.	.	.	.	.	.	.	.	.	.
.	.	4G\	-i	-i,	.	.	4G\	-i	-i,	.	.	4Bn\	-i	-i,	.	.	4d\	-i	-i,	.	.	.	.	.	.	.	.	.
.	.	4BBn\	qui	qui	.	.	4G\	qui	qui	.	.	4d\	qui	qui	.	.	8.g\L	qui	qui	.	.	.	.	.	.	.	.	.
.	.	.	.	.	.	.	.	.	.	.	.	.	.	.	.	.	16f\Jk	.	.	.	.	.	.	.	.	.	.	.
=4	=4	=4	=4	=4	=4	=4	=4	=4	=4	=4	=4	=4	=4	=4	=4	=4	=4	=4	=4	=4	=4	=4	=4	=4	=4	=4	=4	=4
.	.	(4.C\	tol-	tol-	.	.	(4.G\	tol-	tol-	.	.	(4.c\	tol-	tol-	.	.	(4.e-\	tol-	tol-	.	.	2.ryy	2.r	2.r	.	.	.	.
.	.	8D\)	.	.	.	.	8F\)	.	.	.	.	8Bn\)	.	.	.	.	8d\)	.	.	.	.	.	.	.	.	.	.	.
.	.	8.E-\	-lis	-lis	.	.	8.E-\	-lis	-lis	.	.	8.c\	-lis	-lis	.	.	8.c\	-lis	-lis	.	.	.	.	.	.	.	.	.
.	.	16En\	pec-	pec-	.	.	16En\	pec-	pec-	.	.	16B-X\	pec-	pec-	.	.	16B-\	pec-	pec-	.	.	.	.	.	.	.	.	.
!	!	!	!	!	!	!	!LO:LB:g=original	!	!	!	!	!LO:LB:g=original	!	!	!	!	!LO:LB:g=original	!	!	!	!	!	!	!	!	!	!	!
=5	=5	=5	=5	=5	=5	=5	=5	=5	=5	=5	=5	=5	=5	=5	=5	=5	=5	=5	=5	=5	=5	=5	=5	=5	=5	=5	=5	=5
.	.	(4F\	-ca-	-ca-	.	.	(4F\	-ca-	-ca-	.	.	(4A-\	-ca-	-ca-	.	.	(>4A-/	-ca-	-ca-	.	.	2.ryy	2.r	2.r	.	.	.	.
!	!	!LO:SIC:o=4G\	!	!	!	!	!	!	!	!	!	!	!	!	!	!	!LO:SIC:o=4G/	!	!	!	!	!	!	!	!	!	!	!
.	.	4G\)	.	.	.	.	4G\)	.	.	.	.	4G\)	.	.	.	.	4G/)	.	.	.	.	.	.	.	.	.	.	.
!	!	!LO:SIC:o=4F#X\)	!	!	!	!	!	!	!	!	!	!	!	!	!	!	!LO:SIC:o=4F#X/)	!	!	!	!	!	!	!	!	!	!	!
.	.	4F#X\	-ta	-ta	.	.	4F#X\	-ta	-ta	.	.	4F#X\	-ta	-ta	.	.	4F#X/	-ta	-ta	.	.	.	.	.	.	.	.	.
=6	=6	=6	=6	=6	=6	=6	=6	=6	=6	=6	=6	=6	=6	=6	=6	=6	=6	=6	=6	=6	=6	=6	=6	=6	=6	=6	=6	=6
.	.	8.G\L	mun-	mun-	.	.	8.G\L	mun-	mun-	.	.	8.G/L	mun-	mun-	.	.	8.G/L	mun-	mun-	.	.	2.ryy	2.r	2.r	.	.	.	.
.	.	16A-\Jk	.	.	.	.	16A-\Jk	.	.	.	.	16A-/Jk	.	.	.	.	16A-/Jk	.	.	.	.	.	.	.	.	.	.	.
.	.	4G\	-di	-di:	.	.	4G\	-di	-di:	.	.	4G/	-di	-di:	.	.	4G/	-di	-di:	.	.	.	.	.	.	.	.	.
.	.	8.Fn\	mi-	mi-	.	.	8.A-\	mi-	mi-	.	.	8.B-\	mi-	mi-	.	.	8.d\	mi-	mi-	.	.	.	.	.	.	.	.	.
.	.	16F\	-se-	-se-	.	.	16A-\	-se-	-se-	.	.	16B-\	-se-	-se-	.	.	16d\	-se-	-se-	.	.	.	.	.	.	.	.	.
!	!	!LO:LB:g=original	!	!	!	!	!	!	!	!	!	!	!	!	!	!	!	!	!	!	!	!	!	!	!	!	!	!
=7	=7	=7	=7	=7	=7	=7	=7	=7	=7	=7	=7	=7	=7	=7	=7	=7	=7	=7	=7	=7	=7	=7	=7	=7	=7	=7	=7	=7
!LO:N:vis=0	!	!	!	!	!	!	!	!	!	!	!	!	!	!	!	!	!	!	!	!	!	!	!	!	!LO:N:vis=0	!LO:N:vis=0	!LO:N:vis=0	!LO:N:vis=0
1.r	.	4E-\	-re-	-re-	.	.	4G\	-re-	-re-	.	.	4B-\	-re-	-re-	.	.	4e-\	-re-	-re-	.	.	2.ryy	2.r	2.r	1.r	1.r	1.r	1.r
.	.	4D\	-re	-re,	.	.	4A-\	-re	-re,	.	.	4B-\	-re	-re,	.	.	4f\	-re	-re,	.	.	.	.	.	.	.	.	.
.	.	8.F\	mi-	mi-	.	.	8.A-\	mi-	mi-	.	.	8.B-\	mi-	mi-	.	.	8.d\	mi-	mi-	.	.	.	.	.	.	.	.	.
.	.	16F\	-se-	-se-	.	.	16A-\	-se-	-se-	.	.	16B-\	-se-	-se-	.	.	16d\	-se-	-se-	.	.	.	.	.	.	.	.	.
=8	=8	=8	=8	=8	=8	=8	=8	=8	=8	=8	=8	=8	=8	=8	=8	=8	=8	=8	=8	=8	=8	=8	=8	=8	=8	=8	=8	=8
.	.	(4..E-\	-re-	-re-	.	.	(4..G\	-re-	-re-	.	.	(4..B-\	-re-	-re-	.	.	(4..e-\	-re-	-re-	.	.	2.ryy	2.r	2.r	.	.	.	.
!	!	!LO:SIC:o=16c\	!	!	!	!	!	!	!	!	!	!	!	!	!	!	!	!	!	!	!	!	!	!	!	!	!	!
.	.	16c\)	.	.	.	.	16c\)	.	.	.	.	16c\)	.	.	.	.	16c\)	.	.	.	.	.	.	.	.	.	.	.
!	!	!LO:SIC:o=8.G\L)	!	!	!	!	!	!	!	!	!	!	!	!	!	!	!	!	!	!	!	!	!	!	!	!	!	!
.	.	8.G\L	-re	-re	.	.	8.G\L	-re	-re	.	.	8.G/L	-re	-re	.	.	8.G/L	-re-	-re-	.	.	.	.	.	.	.	.	.
!	!	!	!	!	!	!	!	!	!	!	!	!LO:SIC:v:o=16A-/Jk	!	!	!	!	!	!	!	!	!	!	!	!	!	!	!	!
.	.	16An\Jk	.	.	.	.	16An\Jk	.	.	.	.	16An/Jk	.	.	.	.	16An/Jk	.	.	.	.	.	.	.	.	.	.	.
=9	=9	=9	=9	=9	=9	=9	=9	=9	=9	=9	=9	=9	=9	=9	=9	=9	=9	=9	=9	=9	=9	=9	=9	=9	=9	=9	=9	=9
!	!	!LO:SIC:o=4..B-\	!	!	!	!	!LO:SIC:o=4..B-\	!	!	!	!	!	!	!	!	!	!	!	!	!	!	!	!	!	!	!	!	!
2.r	.	(4..B-\	no-	no-	.	.	(4..B-\	no-	no-	.	.	2.B-\	no-	no-	.	.	2.B-\	-no-	-no-	.	.	2.ryy	2.r	2.r	2.r	2.r	2.r	2.r
!	!	!	!	!	!	!	!LO:N:vis=32	!	!	!	!	!	!	!	!	!	!	!	!	!	!	!	!	!	!	!	!	!
.	.	16BB-/KL	.	.	.	.	16D\KL	.	.	.	.	.	.	.	.	.	.	.	.	.	.	.	.	.	.	.	.	.
.	.	8.C/	.	.	.	.	8.E-\	.	.	.	.	.	.	.	.	.	.	.	.	.	.	.	.	.	.	.	.	.
!	!	!LO:SIC:o=16D/Jk	!	!	!	!	!LO:SIC:o=16F\Jk	!	!	!	!	!	!	!	!	!	!	!	!	!	!	!	!	!	!	!	!	!
.	.	16D/Jk)	.	.	.	.	16F\Jk)	.	.	.	.	.	.	.	.	.	.	.	.	.	.	.	.	.	.	.	.	.
=10	=10	=10	=10	=10	=10	=10	=10	=10	=10	=10	=10	=10	=10	=10	=10	=10	=10	=10	=10	=10	=10	=10	=10	=10	=10	=10	=10	=10
4r	.	2E-\	-bis	-bis.	.	.	2E-\	-bis	-bis.	.	.	2G/	-bis	-bis.	.	.	2G/	-bis	-bis.	.	.	2.ryy	2.r	2.r	4r	4r	4r	4r
4E-X\	.	.	.	.	.	.	.	.	.	.	.	.	.	.	.	.	.	.	.	.	.	.	.	.	4b-X\	4gg\	4g\	2g\
4D\	.	4r	.	.	.	.	4r	.	.	.	.	4r	.	.	.	.	4r	.	.	.	.	.	.	.	4bn\	4ff\	4f\	.
!	!	!	!	!	!	!	!LO:LB:g=original	!	!	!	!	!LO:LB:g=original	!	!	!	!	!LO:LB:g=original	!	!	!	!	!	!	!	!	!	!	!
=11	=11	=11	=11	=11	=11	=11	=11	=11	=11	=11	=11	=11	=11	=11	=11	=11	=11	=11	=11	=11	=11	=11	=11	=11	=11	=11	=11	=11
2.C/	.	2C/	A-	A-	.	.	2G\	A-	A-	.	.	2c\	A-	A-	.	.	2e-\	A-	A-	.	.	2.ryy	2.r	2.r	2cc\	2ee-X\	2e-X\	2.g\
.	.	4C/	-gnus	-gnus,	.	.	4F\	-gnus	-gnus,	.	.	4Bn\	-gnus	-gnus,	.	.	4d\	-gnus	-gnus,	.	.	.	.	.	4b\	4dd\	4d\	.
=12	=12	=12	=12	=12	=12	=12	=12	=12	=12	=12	=12	=12	=12	=12	=12	=12	=12	=12	=12	=12	=12	=12	=12	=12	=12	=12	=12	=12
*	*	*	*ij	*ij	*	*	*	*ij	*ij	*	*	*	*ij	*ij	*	*	*	*ij	*ij	*	*	*	*	*	*	*	*	*
2C/	.	2C/	A-	A-	.	.	2E-\	A-	A-	.	.	(4c\	A-	A-	.	.	2c\	A-	A-	.	.	2.ryy	2.r	2.r	2cc\	2cc\	2c/	2g\
.	.	.	.	.	.	.	.	.	.	.	.	4G\)	.	.	.	.	.	.	.	.	.	.	.	.	.	.	.	.
4r	.	4GG/	-gnus	-gnus	.	.	4G\	-gnus	-gnus	.	.	4Bn\	-gnus	-gnus	.	.	4d\	-gnus	-gnus	.	.	.	.	.	4r	4r	4r	4r
*	*	*	*Xij	*Xij	*	*	*	*Xij	*Xij	*	*	*	*Xij	*Xij	*	*	*	*Xij	*Xij	*	*	*	*	*	*	*	*	*
=13	=13	=13	=13	=13	=13	=13	=13	=13	=13	=13	=13	=13	=13	=13	=13	=13	=13	=13	=13	=13	=13	=13	=13	=13	=13	=13	=13	=13
!LO:TX:a:t=7.:mod=	!	!	!	!	!	!	!	!	!	!	!	!	!	!	!	!	!	!	!	!	!	!	!	!	!LO:TX:a:t=7.:mod=	!LO:TX:a:t=7.:mod=	!LO:TX:a:t=7.:mod=	!LO:TX:a:t=7.:mod=
!LO:N:vis=00	!	!	!	!	!	!	!	!	!	!	!	!	!	!	!	!	!	!	!	!	!	!	!	!	!LO:N:vis=00	!LO:N:vis=00	!LO:N:vis=00	!LO:N:vis=00
0.r	.	8.C/L	De-	De-	.	.	4G\	De-	De-	.	.	4c\	De-	De-	.	.	4e-\	De-	De-	.	.	2.ryy	2.r	2.r	0.r	0.r	0.r	0.r
.	.	16E-/Jk	.	.	.	.	.	.	.	.	.	.	.	.	.	.	.	.	.	.	.	.	.	.	.	.	.	.
.	.	4G\	-i	-i,	.	.	4G\	-i	-i,	.	.	4Bn\	-i	-i,	.	.	4d\	-i	-i,	.	.	.	.	.	.	.	.	.
.	.	4BBn/	qui	qui	.	.	4G\	qui	qui	.	.	4d\	qui	qui	.	.	8.g\L	qui	qui	.	.	.	.	.	.	.	.	.
.	.	.	.	.	.	.	.	.	.	.	.	.	.	.	.	.	16f\Jk	.	.	.	.	.	.	.	.	.	.	.
!	!	!LO:LB:g=original	!	!	!	!	!	!	!	!	!	!	!	!	!	!	!	!	!	!	!	!	!	!	!	!	!	!
=14	=14	=14	=14	=14	=14	=14	=14	=14	=14	=14	=14	=14	=14	=14	=14	=14	=14	=14	=14	=14	=14	=14	=14	=14	=14	=14	=14	=14
.	.	(4.C/	tol-	tol-	.	.	2G\	tol-	tol-	.	.	2c\	tol-	tol-	.	.	(4.e-\	tol-	tol-	.	.	2.ryy	2.r	2.r	.	.	.	.
.	.	8BB-/)	.	.	.	.	.	.	.	.	.	.	.	.	.	.	8en\)	.	.	.	.	.	.	.	.	.	.	.
.	.	8.AA-/	-lis	-lis	.	.	8.F\	-tis	-tis	.	.	8.c\	-lis	-lis	.	.	8.f\	-lis	-lis	.	.	.	.	.	.	.	.	.
.	.	16AAn/	pec-	pec-	.	.	16F\	pec-	pec-	.	.	16c\	pec-	pec-	.	.	16e-X\	pec-	pec-	.	.	.	.	.	.	.	.	.
=15	=15	=15	=15	=15	=15	=15	=15	=15	=15	=15	=15	=15	=15	=15	=15	=15	=15	=15	=15	=15	=15	=15	=15	=15	=15	=15	=15	=15
.	.	(4BB-/	-ca-	-ca-	.	.	2F\	-ca-	-ca-	.	.	(4B-\	-ca-	-ca-	.	.	(4d\	-ca-	-ca-	.	.	2.ryy	2.r	2.r	.	.	.	.
.	.	4C/)	.	.	.	.	.	.	.	.	.	4An\)	.	.	.	.	4c\)	.	.	.	.	.	.	.	.	.	.	.
.	.	4D/	-ta	-ta	.	.	4F\	-ta	-ta	.	.	4B-\	-ta	-ta	.	.	4B-\	-ta	-ta	.	.	.	.	.	.	.	.	.
=16	=16	=16	=16	=16	=16	=16	=16	=16	=16	=16	=16	=16	=16	=16	=16	=16	=16	=16	=16	=16	=16	=16	=16	=16	=16	=16	=16	=16
.	.	4E-\	mun-	mun-	.	.	4G\	mun-	mun-	.	.	4G/	mun-	mun-	.	.	8.B-\L	mun-	mun-	.	.	2.ryy	2.r	2.r	.	.	.	.
.	.	.	.	.	.	.	.	.	.	.	.	.	.	.	.	.	16c\Jk	.	.	.	.	.	.	.	.	.	.	.
.	.	4E-\	-di	-di:	.	.	4G\	-di	-di:	.	.	4G/	-di	-di:	.	.	4B-\	-di	-di:	.	.	.	.	.	.	.	.	.
.	.	8.D\	mi-	mi-	.	.	8.F\	mi-	mi-	.	.	8.G/	mi-	mi-	.	.	8.Bn\	mi-	mi-	.	.	.	.	.	.	.	.	.
.	.	16D\	-se-	-se-	.	.	16F\	-se-	-se-	.	.	16G/	-se-	-se-	.	.	16B\	-se-	-se-	.	.	.	.	.	.	.	.	.
!	!	!	!	!	!	!	!	!	!	!	!	!LO:PB:g=original	!	!	!	!	!LO:LB:g=original	!	!	!	!	!	!	!	!	!	!	!
=17	=17	=17	=17	=17	=17	=17	=17	=17	=17	=17	=17	=17	=17	=17	=17	=17	=17	=17	=17	=17	=17	=17	=17	=17	=17	=17	=17	=17
!LO:N:vis=0	!	!	!	!	!	!	!	!	!	!	!	!	!	!	!	!	!	!	!	!	!	!	!	!	!LO:N:vis=0	!LO:N:vis=0	!LO:N:vis=0	!LO:N:vis=0
1.r	.	4C/	-re-	-re-	.	.	4E-\	-re-	-re-	.	.	4G/	-re-	-re-	.	.	4c\	-re-	-re-	.	.	2.ryy	2.r	2.r	1.r	1.r	1.r	1.r
.	.	4BBn/	-re	-re,	.	.	4F\	-re	-re,	.	.	4G/	-re	-re,	.	.	4d\	-re	-re,	.	.	.	.	.	.	.	.	.
.	.	8.D\	mi-	mi-	.	.	8.F\	mi-	mi-	.	.	8.G/	mi-	mi-	.	.	8.Bn\	mi-	mi-	.	.	.	.	.	.	.	.	.
.	.	16D\	-se-	-se-	.	.	16F\	-se-	-se-	.	.	16G/	-se-	-se-	.	.	16B\	-se-	-se-	.	.	.	.	.	.	.	.	.
!	!	!	!	!	!	!	!LO:LB:g=original	!	!	!	!	!	!	!	!	!	!	!	!	!	!	!	!	!	!	!	!	!
=18	=18	=18	=18	=18	=18	=18	=18	=18	=18	=18	=18	=18	=18	=18	=18	=18	=18	=18	=18	=18	=18	=18	=18	=18	=18	=18	=18	=18
!	!	!	!	!	!	!	!	!	!	!	!	!LO:SIC:o=4..G/	!	!	!	!	!	!	!	!	!	!	!	!	!	!	!	!
.	.	(4..C\	-re-	-re-	.	.	(4..E-\	-re-	-re-	.	.	(4..G/	-re-	-re-	.	.	(4..c\	-re-	-re-	.	.	2.ryy	2.r	2.r	.	.	.	.
!	!	!	!	!	!	!	!	!	!	!	!	!LO:SIC:o=16G/	!	!	!	!	!	!	!	!	!	!	!	!	!	!	!	!
.	.	16A-\)	.	.	.	.	16A-\)	.	.	.	.	16A-/)	-re	.	.	.	16A-\)	.	.	.	.	.	.	.	.	.	.	.
.	.	8.E-\L	-re	-re	.	.	8.E-\L	-re	-re	.	.	8.E-/L	no-	-re	.	.	8.E-/L	-re	-re	.	.	.	.	.	.	.	.	.
.	.	16F\Jk	.	.	.	.	16F\Jk	.	.	.	.	16F/Jk	.	.	.	.	16F/Jk	.	.	.	.	.	.	.	.	.	.	.
=19	=19	=19	=19	=19	=19	=19	=19	=19	=19	=19	=19	=19	=19	=19	=19	=19	=19	=19	=19	=19	=19	=19	=19	=19	=19	=19	=19	=19
!	!	!LO:SIC:o=4..G\	!	!	!	!	!LO:SIC:o=4..G\	!	!	!	!	!LO:SIC:o=(>2.G/	!	!	!	!	!	!	!	!	!	!	!	!	!	!	!	!
2.r	.	(4..G\	no-	no-	.	.	(4..G\	no-	no-	.	.	2.G/	-bis	no-	.	.	2.G/	no-	no-	.	.	2.ryy	2.r	2.r	2.r	2.r	2.r	2.r
.	.	16GG/KL	.	.	.	.	16BBn/KL	.	.	.	.	.	.	.	.	.	.	.	.	.	.	.	.	.	.	.	.	.
.	.	8.AA-/	.	.	.	.	8.C/	.	.	.	.	.	.	.	.	.	.	.	.	.	.	.	.	.	.	.	.	.
!	!	!LO:SIC:o=16BBn/Jk	!	!	!	!	!LO:SIC:o=16D/Jk	!	!	!	!	!	!	!	!	!	!	!	!	!	!	!	!	!	!	!	!	!
.	.	16BBn/Jk)	.	.	.	.	16D/Jk)	.	.	.	.	.	.	.	.	.	.	.	.	.	.	.	.	.	.	.	.	.
!LO:LB:g=original	!	!LO:LB:g=original	!	!	!	!	!	!	!	!	!	!	!	!	!	!	!	!	!	!	!	!	!	!	!LO:LB:g=original	!LO:LB:g=original	!LO:LB:g=original	!
=20	=20	=20	=20	=20	=20	=20	=20	=20	=20	=20	=20	=20	=20	=20	=20	=20	=20	=20	=20	=20	=20	=20	=20	=20	=20	=20	=20	=20
!	!	!	!	!	!	!	!	!	!	!	!	!LO:SIC:o=2F/)	!	!	!	!	!	!	!	!	!	!	!	!	!	!	!	!
4r	.	2C/	-bis	-bis.	.	.	2C/	-bis	-bis.	.	.	2E-/	.	-bis.	.	.	2E-/	-bis.	-bis.	.	.	2.ryy	2.r	2.r	4r	4r	4r	4r
4C/	.	.	.	.	.	.	.	.	.	.	.	.	.	.	.	.	.	.	.	.	.	.	.	.	4ee-X\	2ee-X\	4e-X\	2g\
4BB-X/	.	4r	.	.	.	.	4r	.	.	.	.	4r	.	.	.	.	4r	.	.	.	.	.	.	.	4dd-X\	.	4d-X\	.
=21	=21	=21	=21	=21	=21	=21	=21	=21	=21	=21	=21	=21	=21	=21	=21	=21	=21	=21	=21	=21	=21	=21	=21	=21	=21	=21	=21	=21
2.AA-X/	.	2AA-/	A-	A-	.	.	2E-\	A-	A-	.	.	2A-\	A-	A-	.	.	2c\	A-	A-	.	.	2.ryy	2.r	2.r	2cc\	2.ee-X\	2c/	2a-X\
.	.	4AA-/	-gnus	-gnus,	.	.	4D-X\	-gnus	-gnus,	.	.	4G\	-gnus	-gnus,	.	.	4B-\	-gnus	-gnus,	.	.	.	.	.	4b-X\	.	4d-X/	4g\
=22	=22	=22	=22	=22	=22	=22	=22	=22	=22	=22	=22	=22	=22	=22	=22	=22	=22	=22	=22	=22	=22	=22	=22	=22	=22	=22	=22	=22
*	*	*	*ij	*ij	*	*	*	*ij	*ij	*	*	*	*ij	*ij	*	*	*	*ij	*ij	*	*	*	*	*	*	*	*	*
2AA-/	.	2AA-/	A-	A-	.	.	2C\	A-	A-	.	.	(4A-\	A-	A-	.	.	2A-\	A-	A-	.	.	2.ryy	2.r	2.r	2cc\	2ee-X\	2c/	2a-X\
.	.	.	.	.	.	.	.	.	.	.	.	4E-/)	.	.	.	.	.	.	.	.	.	.	.	.	.	.	.	.
4r	.	4E-\	-gnus	-gnus	.	.	4E-\	-gnus	-gnus	.	.	4G/	-gnus	-gnus	.	.	4B-\	-gnus	-gnus	.	.	.	.	.	4r	4r	4r	4r
*	*	*	*Xij	*Xij	*	*	*	*Xij	*Xij	*	*	*	*Xij	*Xij	*	*	*	*Xij	*Xij	*	*	*	*	*	*	*	*	*
!	!	!	!	!	!	!	!	!	!	!	!	!	!	!	!	!	!LO:LB:g=original	!	!	!	!	!	!	!	!	!	!	!
=23	=23	=23	=23	=23	=23	=23	=23	=23	=23	=23	=23	=23	=23	=23	=23	=23	=23	=23	=23	=23	=23	=23	=23	=23	=23	=23	=23	=23
!LO:TX:a:t=2.:mod=	!	!	!	!	!	!	!	!	!	!	!	!	!	!	!	!	!	!	!	!	!	!	!	!	!LO:TX:a:t=2.:mod=	!LO:TX:a:t=2.:mod=	!LO:TX:a:t=2.:mod=	!LO:TX:a:t=2.:mod=
!LO:N:vis=0	!	!	!	!	!	!	!	!	!	!	!	!	!	!	!	!	!	!	!	!	!	!	!	!	!LO:N:vis=0	!LO:N:vis=0	!LO:N:vis=0	!LO:N:vis=0
1.r	.	8.AA-/L	De-	De-	.	.	4E-\	De-	De-	.	.	4A-\	de-	De-	.	.	4c\	De-	De-	.	.	2.ryy	2.r	2.r	1.r	1.r	1.r	1.r
.	.	16C/Jk	.	.	.	.	.	.	.	.	.	.	.	.	.	.	.	.	.	.	.	.	.	.	.	.	.	.
.	.	4E-\	-i	-i,	.	.	4E-\	-i	-i,	.	.	4G\	-i	-i,	.	.	4B-\	-i.	-i,	.	.	.	.	.	.	.	.	.
.	.	4r	.	.	.	.	4r	.	.	.	.	4r	.	.	.	.	4r	.	.	.	.	.	.	.	.	.	.	.
!	!	!	!	!	!	!	!	!	!	!	!	!LO:LB:g=original	!	!	!	!	!	!	!	!	!	!	!	!	!	!	!	!
=24	=24	=24	=24	=24	=24	=24	=24	=24	=24	=24	=24	=24	=24	=24	=24	=24	=24	=24	=24	=24	=24	=24	=24	=24	=24	=24	=24	=24
.	.	4..E-\	Do-	do-	.	.	4..E-\	Do-	do-	.	.	4..e-\	Do-	do-	.	.	4..e-\	Do-	do-	.	.	2.ryy	2.r	2.r	.	.	.	.
.	.	16C\	-na	-na	.	.	16C\	-na	-na	.	.	16c\	-na	-na	.	.	16c\	-na	-na	.	.	.	.	.	.	.	.	.
.	.	8.AA-/	no-	no-	.	.	8.AA-/	no-	no-	.	.	8.A-\	no-	no-	.	.	8.A-\	no-	no-	.	.	.	.	.	.	.	.	.
.	.	16BB-/	-bis	-bis	.	.	16BB-/	-bis	-bis	.	.	16B-\	-bis	-bis	.	.	16B-\	-bis	-bis	.	.	.	.	.	.	.	.	.
!	!	!	!	!	!	!	!LO:LB:g=original	!	!	!	!	!	!	!	!	!	!	!	!	!	!	!	!	!	!	!	!	!LO:LB:g=original
=25	=25	=25	=25	=25	=25	=25	=25	=25	=25	=25	=25	=25	=25	=25	=25	=25	=25	=25	=25	=25	=25	=25	=25	=25	=25	=25	=25	=25
!	!	!LO:SIC:o=2C/	!	!	!	!	!LO:SIC:o=2C/	!	!	!	!	!LO:SIC:o=2c\	!	!	!	!	!LO:SIC:o=2.c\	!	!	!	!	!	!	!	!	!	!	!
4r	.	(2C/	pa-	pa-	.	.	(2C/	pa-	pa-	.	.	(2c\	pa-	pa-	.	.	([2.c\	pa-	pa-	.	.	2.ryy	2.r	2.r	4r	4r	4r	4r
4r	.	.	.	.	.	.	.	.	.	.	.	.	.	.	.	.	.	.	.	.	.	.	.	.	4r	4r	4r	4r
4BB-/	.	4BB-/	.	.	.	.	4En\	.	.	.	.	4G\	.	.	.	.	.	.	.	.	.	.	.	.	4c/	4cc\	4e\	4g\
=26	=26	=26	=26	=26	=26	=26	=26	=26	=26	=26	=26	=26	=26	=26	=26	=26	=26	=26	=26	=26	=26	=26	=26	=26	=26	=26	=26	=26
!	!	!	!	!	!	!	!	!	!	!	!	!	!	!	!	!	!LO:SIC:o=2.c\	!	!	!	!	!	!	!	!	!	!	!
2.AA-/	.	2.AA-/	.	.	.	.	2F\	.	.	.	.	2F/	.	.	.	.	2.c\_	.	.	.	.	2.ryy	2.r	2.r	2.c/	2.cc\	2f\	2f\
.	.	.	.	.	.	.	4E-X\	.	.	.	.	4F#X/	.	.	.	.	.	.	.	.	.	.	.	.	.	.	4e-X\	4f#X\
=27	=27	=27	=27	=27	=27	=27	=27	=27	=27	=27	=27	=27	=27	=27	=27	=27	=27	=27	=27	=27	=27	=27	=27	=27	=27	=27	=27	=27
!	!	!LO:SIC:o=2.GG/	!	!	!	!	!	!	!	!	!	!	!	!	!	!	!LO:SIC:o=2.c\	!	!	!	!	!	!	!	!	!	!	!
2.GG/	.	[2.GG/	.	.	.	.	4..En\	.	.	.	.	4..G/	.	.	.	.	2.c\_	.	.	.	.	2.ryy	2.r	2.r	2c/	4..cc\	4en\	4..g\
.	.	.	.	.	.	.	.	.	.	.	.	.	.	.	.	.	.	.	.	.	.	.	.	.	.	.	2c/	.
!	!	!	!	!	!	!	!LO:N:vis=32	!	!	!	!	!LO:N:vis=32	!	!	!	!	!	!	!	!	!	!	!	!	!	!	!	!
.	.	.	.	.	.	.	16C/KL	.	.	.	.	16En/KL	.	.	.	.	.	.	.	.	.	.	.	.	.	16cc\L	.	16e\L
.	.	.	.	.	.	.	8.D/	.	.	.	.	8.F/	.	.	.	.	.	.	.	.	.	.	.	.	4cc\	8.dd\	.	8.f\
.	.	.	.	.	.	.	16E/Jk	.	.	.	.	16G/Jk	.	.	.	.	.	.	.	.	.	.	.	.	.	16ee\Jk	.	16g\Jk
!	!	!LO:LB:g=original	!	!	!	!	!	!	!	!	!	!	!	!	!	!	!	!	!	!	!	!	!	!	!	!	!	!
=28	=28	=28	=28	=28	=28	=28	=28	=28	=28	=28	=28	=28	=28	=28	=28	=28	=28	=28	=28	=28	=28	=28	=28	=28	=28	=28	=28	=28
!	!	!LO:SIC:o=2.GG/	!	!	!	!	!LO:SIC:o=2.D\	!	!	!	!	!LO:SIC:o=2.F/	!	!	!	!	!LO:SIC:o=4c\	!	!	!	!	!	!	!	!	!	!	!
2.GG/	.	2.GG/])	.	.	.	.	2.D\)	.	.	.	.	2.F/)	.	.	.	.	4c\]	.	.	.	.	2.ryy	2.r	2.r	2cc\	2.dd\	2.f\	2.g\
.	.	.	.	.	.	.	.	.	.	.	.	.	.	.	.	.	8Bn\L	.	.	.	.	.	.	.	.	.	.	.
.	.	.	.	.	.	.	.	.	.	.	.	.	.	.	.	.	8An\J	.	.	.	.	.	.	.	.	.	.	.
!	!	!	!	!	!	!	!	!	!	!	!	!	!	!	!	!	!LO:SIC:o=4B\	!	!	!	!	!	!	!	!	!	!	!
.	.	.	.	.	.	.	.	.	.	.	.	.	.	.	.	.	4B\)	.	.	.	.	.	.	.	4b\	.	.	.
!	!	!	!	!	!	!	!	!	!	!	!	!	!	!	!	!	!	!	!	!	!	!	!	!	!	!	!LO:LB:g=original	!
=29	=29	=29	=29	=29	=29	=29	=29	=29	=29	=29	=29	=29	=29	=29	=29	=29	=29	=29	=29	=29	=29	=29	=29	=29	=29	=29	=29	=29
2C/	.	2C/	-cem	-cem,	.	.	2C/	-cem.	-cem,	.	.	2En/	-cem.	-cem,	.	.	2c\	-cem.	-cem.	.	.	2.ryy	2.r	2.r	2cc\	2cc\	2e\	2g\
4r	.	8.C/	do-	do-	.	.	4r	.	.	.	.	4r	.	.	.	.	4r	.	.	.	.	.	.	.	4r	4r	4r	4r
.	.	16C/	-na	-na	.	.	.	.	.	.	.	.	.	.	.	.	.	.	.	.	.	.	.	.	.	.	.	.
!LO:LB:g=original	!	!	!	!	!	!	!LO:LB:g=original	!	!	!	!	!LO:LB:g=original	!	!	!	!	!LO:LB:g=original	!	!	!	!	!	!	!	!LO:LB:g=original	!LO:LB:g=original	!	!LO:LB:g=original
=30||	=30||	=30||	=30||	=30||	=30||	=30||	=30||	=30||	=30||	=30||	=30||	=30||	=30||	=30||	=30||	=30||	=30||	=30||	=30||	=30||	=30||	=30||	=30||	=30||	=30||	=30||	=30||	=30||
!!!OMD:
!!!OMD-mod: Andante
*k[]	*	*k[]	*	*	*	*	*k[]	*	*	*	*	*k[]	*	*	*	*	*k[]	*	*	*	*	*k[]	*k[]	*k[]	*k[]	*k[]	*k[b-]	*k[b-]
*	*	*	*	*	*	*	*	*	*	*	*	*	*	*	*	*	*	*	*	*	*	*	*	*	*	*	*	*
*M2/4	*	*M2/4	*	*	*	*	*M2/4	*	*	*	*	*M2/4	*	*	*	*	*M2/4	*	*	*	*	*M2/4	*M2/4	*M2/4	*M2/4	*M2/4	*M2/4	*M2/4
!LO:TX:a:t=Dona:mod=	!	!LO:TX:a:B:t=Andante:mod=	!	!	!	!	!LO:TX:a:B:t=Andante:mod=	!	!	!	!	!LO:TX:a:B:t=Andante:mod=	!	!	!	!	!LO:TX:a:B:t=Andante:mod=	!	!	!	!	!	!LO:TX:a:B:t=Andante:mod=	!LO:TX:a:B:t=Andante:mod=	!LO:TX:a:B:t=Andante:mod=	!LO:TX:a:B:t=Andante:mod=	!LO:TX:a:B:t=Andante:mod=	!LO:TX:a:B:t=Andante:mod=
!LO:TX:a:t=7.:mod=	!	!	!	!	!	!	!	!	!	!	!	!	!	!	!	!	!LO:N:vis=1	!	!	!	!	!	!LO:TX:b:t=20	!LO:TX:b:t=20.:mod=	!LO:TX:b:t=9.:mod=	!LO:TX:b:t=9.:mod=	!LO:TX:b:t=8.:mod=	!LO:TX:b:t=8.:mod=
!LO:N:vis=00	!	!	!	!	!	!	!	!	!	!	!	!	!	!	!	!	!	!	!	!	!	!	!	!	!	!LO:TX:a:t=Dona:mod=	!	!
!	!	!	!	!	!	!	!	!	!	!	!	!	!	!	!	!	!	!	!	!	!	!	!	!	!LO:N:vis=00	!LO:N:vis=00	!LO:N:vis=00	!LO:N:vis=00
0r	.	[>2C/	no-	no-	.	.	4r	.	.	.	.	4r	.	.	.	.	2r	.	.	.	.	2ryy	2r	2r	0r	0r	0r	0r
.	.	.	.	.	.	.	8.E\	do-	do-	.	.	8.G/	do-	do-	.	.	.	.	.	.	.	.	.	.	.	.	.	.
.	.	.	.	.	.	.	16E\	-na	-na	.	.	16G/	-na	-na	.	.	.	.	.	.	.	.	.	.	.	.	.	.
=31	=31	=31	=31	=31	=31	=31	=31	=31	=31	=31	=31	=31	=31	=31	=31	=31	=31	=31	=31	=31	=31	=31	=31	=31	=31	=31	=31	=31
!	!	!LO:SIC:o=2C/]	!	!	!	!	!	!	!	!	!	!	!	!	!	!	!	!	!	!	!	!	!	!	!	!	!	!
.	.	2C/_	.	.	.	.	4F\	no-	no-	.	.	4A/	no-	no-	.	.	4r	.	.	.	.	2ryy	2r	2r	.	.	.	.
.	.	.	.	.	.	.	4E\	-bis	-bis	.	.	4G/	-bis	-bis	.	.	8.c\	do-	do-	.	.	.	.	.	.	.	.	.
.	.	.	.	.	.	.	.	.	.	.	.	.	.	.	.	.	16c\	-na	-na	.	.	.	.	.	.	.	.	.
=32	=32	=32	=32	=32	=32	=32	=32	=32	=32	=32	=32	=32	=32	=32	=32	=32	=32	=32	=32	=32	=32	=32	=32	=32	=32	=32	=32	=32
!	!	!LO:SIC:o=4C/	!	!	!	!	!LO:SIC:o=2G\	!	!	!	!	!LO:SIC:o=2G/	!	!	!	!	!	!	!	!	!	!	!	!	!	!	!	!
.	.	4C/]	.	.	.	.	(2G\	pa-	pa-	.	.	(2G/	pa-	pa-	.	.	[2d\	no-	no-	.	.	2ryy	2r	2r	.	.	.	.
.	.	4BB/	-bis	-bis	.	.	.	.	.	.	.	.	.	.	.	.	.	.	.	.	.	.	.	.	.	.	.	.
=33	=33	=33	=33	=33	=33	=33	=33	=33	=33	=33	=33	=33	=33	=33	=33	=33	=33	=33	=33	=33	=33	=33	=33	=33	=33	=33	=33	=33
!	!	!LO:SIC:o=4C/	!	!	!	!	!	!	!	!	!	!	!	!	!	!	!	!	!	!	!	!	!	!	!	!	!	!
.	.	(4C/	pa-	pa-	.	.	2E\	.	.	.	.	4G/	.	.	.	.	4d\]	.	.	.	.	2ryy	2r	2r	.	.	.	.
.	.	4AA/	.	.	.	.	.	.	.	.	.	4A/	.	.	.	.	4c\	-bis	-bis	.	.	.	.	.	.	.	.	.
=34	=34	=34	=34	=34	=34	=34	=34	=34	=34	=34	=34	=34	=34	=34	=34	=34	=34	=34	=34	=34	=34	=34	=34	=34	=34	=34	=34	=34
!LO:N:vis=0	!	!	!	!	!	!	!	!	!	!	!	!	!	!	!	!	!LO:SIC:o=4A\	!	!	!	!	!	!	!	!LO:N:vis=00	!LO:N:vis=00	!LO:N:vis=00	!LO:N:vis=00
1r	.	[2D\	.	.	.	.	2F\	.	.	.	.	4F/	.	.	.	.	(4A\	pa-	pa-	.	.	2ryy	2r	2r	0r	0r	0r	0r
.	.	.	.	.	.	.	.	.	.	.	.	4A/	.	.	.	.	8.e\L	.	.	.	.	.	.	.	.	.	.	.
.	.	.	.	.	.	.	.	.	.	.	.	.	.	.	.	.	16d\Jk	.	.	.	.	.	.	.	.	.	.	.
=35	=35	=35	=35	=35	=35	=35	=35	=35	=35	=35	=35	=35	=35	=35	=35	=35	=35	=35	=35	=35	=35	=35	=35	=35	=35	=35	=35	=35
.	.	4D\]	.	.	.	.	4F\	.	.	.	.	4B\	.	.	.	.	4f\	.	.	.	.	2ryy	2r	2r	.	.	.	.
.	.	4C/	.	.	.	.	4G\	.	.	.	.	4c\	.	.	.	.	4e\	.	.	.	.	.	.	.	.	.	.	.
!	!	!	!	!	!	!	!	!	!	!	!	!	!	!	!	!	!LO:LB:g=original	!	!	!	!	!	!	!	!	!	!	!
=36	=36	=36	=36	=36	=36	=36	=36	=36	=36	=36	=36	=36	=36	=36	=36	=36	=36	=36	=36	=36	=36	=36	=36	=36	=36	=36	=36	=36
!	!	!	!	!	!	!	!LO:SIC:o=2G\	!	!	!	!	!	!	!	!	!	!	!	!	!	!	!	!	!	!	!	!	!
2r	.	4BB/	.	.	.	.	2G\)	.	.	.	.	4d\	.	.	.	.	4d\	.	.	.	.	2ryy	2r	2r	.	.	.	.
!	!	!	!	!	!	!	!	!	!	!	!	!LO:SIC:o=4c\	!	!	!	!	!	!	!	!	!	!	!	!	!	!	!	!
.	.	8.C/L	.	.	.	.	.	.	.	.	.	4c\)	.	.	.	.	8.e\L	.	.	.	.	.	.	.	.	.	.	.
!	!	!LO:SIC:o=16E/Jk	!	!	!	!	!	!	!	!	!	!	!	!	!	!	!LO:SIC:o=16c\Jk	!	!	!	!	!	!	!	!	!	!	!
.	.	16E/Jk)	.	.	.	.	.	.	.	.	.	.	.	.	.	.	16c\Jk)	.	.	.	.	.	.	.	.	.	.	.
!	!	!LO:LB:g=original	!	!	!	!	!LO:LB:g=original	!	!	!	!	!LO:LB:g=original	!	!	!	!	!	!	!	!	!	!	!	!	!	!	!	!
=37	=37	=37	=37	=37	=37	=37	=37	=37	=37	=37	=37	=37	=37	=37	=37	=37	=37	=37	=37	=37	=37	=37	=37	=37	=37	=37	=37	=37
4r	.	4G\	-cen	-cem,	.	.	4G\	-cem	-cem,	.	.	4B\	-cem	-cem,	.	.	4d\	-cem	-cem,	.	.	2ryy	2r	2r	.	.	.	.
4C/	.	8.C\	do-	do-	.	.	4r	.	.	.	.	4r	.	.	.	.	4r	.	.	.	.	.	.	.	.	.	.	.
.	.	16C\	-na	-na	.	.	.	.	.	.	.	.	.	.	.	.	.	.	.	.	.	.	.	.	.	.	.	.
=38	=38	=38	=38	=38	=38	=38	=38	=38	=38	=38	=38	=38	=38	=38	=38	=38	=38	=38	=38	=38	=38	=38	=38	=38	=38	=38	=38	=38
!	!	!	!	!	!	!	!	!	!	!	!	!	!	!	!	!	!LO:N:vis=1	!	!	!	!	!	!	!	!	!	!	!
!	!	!LO:SIC:o=2C/	!	!	!	!	!	!	!	!	!	!	!	!	!	!	!LO:TX:a:t=1.:mod=	!	!	!	!	!	!	!	!	!	!	!
[2C/	.	[2C/	no-	no-	.	.	4r	.	.	.	.	4r	.	.	.	.	2r	.	.	.	.	2ryy	2r	2r	2r	2r	4r	4r
.	.	.	.	.	.	.	8.E\	do-	do-	.	.	8.G/	do-	do-	.	.	.	.	.	.	.	.	.	.	.	.	4e\	4g\
.	.	.	.	.	.	.	16E\	-na	-na	.	.	16G/	-na	-na	.	.	.	.	.	.	.	.	.	.	.	.	.	.
=39	=39	=39	=39	=39	=39	=39	=39	=39	=39	=39	=39	=39	=39	=39	=39	=39	=39	=39	=39	=39	=39	=39	=39	=39	=39	=39	=39	=39
!	!	!LO:SIC:o=[>2C/	!	!	!	!	!	!	!	!	!	!	!	!	!	!	!	!	!	!	!	!	!	!	!	!	!	!
2C/]	.	2C/_	.	.	.	.	4F\	no-	no-	.	.	4A\	no-	no-	.	.	4r	.	.	.	.	2ryy	2r	2r	4r	4r	4f\	4a\
.	.	.	.	.	.	.	4E\	-bis	-bis	.	.	4G\	-bis	-bis	.	.	8.c\	do-	do-	.	.	.	.	.	4e/	4cc\	4c\	4g\
.	.	.	.	.	.	.	.	.	.	.	.	.	.	.	.	.	16c\	-na	-na	.	.	.	.	.	.	.	.	.
=40	=40	=40	=40	=40	=40	=40	=40	=40	=40	=40	=40	=40	=40	=40	=40	=40	=40	=40	=40	=40	=40	=40	=40	=40	=40	=40	=40	=40
!	!	!	!	!	!	!	!LO:SIC:o=2G\	!	!	!	!	!LO:SIC:o=2G/	!	!	!	!	!	!	!	!	!	!	!	!	!	!	!	!
4C/	.	4C/]	.	.	.	.	(2G\	pa-	pa-	.	.	([2G/	pa-	pa-	.	.	[2d\	no-	no-	.	.	2ryy	2r	2r	2g/	[2dd\	[2g\	[2g\
4BB/	.	4BB/	-bis	-bis	.	.	.	.	.	.	.	.	.	.	.	.	.	.	.	.	.	.	.	.	.	.	.	.
=41	=41	=41	=41	=41	=41	=41	=41	=41	=41	=41	=41	=41	=41	=41	=41	=41	=41	=41	=41	=41	=41	=41	=41	=41	=41	=41	=41	=41
!	!	!LO:SIC:o=4C/	!	!	!	!	!	!	!	!	!	!LO:SIC:o=4G/	!	!	!	!	!	!	!	!	!	!	!	!	!	!	!	!
4C/	.	(4C/	pa-	pa-	.	.	2E\	.	.	.	.	4G/]	.	.	.	.	4d\]	.	.	.	.	2ryy	2r	2r	2e/	4dd\]	4g\]	4g\]
4AA/	.	4AA/	.	.	.	.	.	.	.	.	.	4A/	.	.	.	.	4c\	-bis	-bis	.	.	.	.	.	.	4cc\	4c\	4a\
=42	=42	=42	=42	=42	=42	=42	=42	=42	=42	=42	=42	=42	=42	=42	=42	=42	=42	=42	=42	=42	=42	=42	=42	=42	=42	=42	=42	=42
!LO:SIC:v:o=2E\	!	!	!	!	!	!	!LO:SIC:o=2F\	!	!	!	!	!	!	!	!	!	!LO:SIC:o=4A\	!	!	!	!	!	!	!	!LO:N:vis=1	!	!	!
2D\	.	[2D\	.	.	.	.	[2F\	.	.	.	.	4F/	.	.	.	.	(4A\	pa-	pa-	.	.	2ryy	2r	2r	2r	4a\	2f\	2a\
.	.	.	.	.	.	.	.	.	.	.	.	4A/	.	.	.	.	8.e\L	.	.	.	.	.	.	.	.	8.ee\L	.	.
.	.	.	.	.	.	.	.	.	.	.	.	.	.	.	.	.	16d\Jk	.	.	.	.	.	.	.	.	16dd\Jk	.	.
=43	=43	=43	=43	=43	=43	=43	=43	=43	=43	=43	=43	=43	=43	=43	=43	=43	=43	=43	=43	=43	=43	=43	=43	=43	=43	=43	=43	=43
!	!	!	!	!	!	!	!LO:SIC:o=4F\	!	!	!	!	!	!	!	!	!	!	!	!	!	!	!	!	!	!	!	!	!
4D\	.	4D\]	.	.	.	.	4F\]	.	.	.	.	4B\	.	.	.	.	4f\	.	.	.	.	2ryy	2r	2r	4b\	4dd\	4f\	4f\
!	!	!	!	!	!	!	!	!	!	!	!	!LO:SIC:o=4c\	!	!	!	!	!	!	!	!	!	!	!	!	!	!	!	!
4C\	.	4C\	.	.	.	.	4G\	.	.	.	.	[4c\	.	.	.	.	4e\	.	.	.	.	.	.	.	4cc\	4ee\	4e\	4g\
!	!	!	!	!	!	!	!	!	!	!	!	!	!	!	!	!	!LO:TX:b:rj:t=V.S.:mod=	!	!	!	!	!	!	!	!	!	!	!
!LO:LB:g=original	!	!	!	!	!	!	!	!	!	!	!	!	!	!	!	!	!LO:PB:g=original	!	!	!	!	!	!	!	!	!	!	!
=44	=44	=44	=44	=44	=44	=44	=44	=44	=44	=44	=44	=44	=44	=44	=44	=44	=44	=44	=44	=44	=44	=44	=44	=44	=44	=44	=44	=44
!	!	!	!	!	!	!	!	!	!	!	!	!LO:SIC:o=4c\	!	!	!	!	!LO:SIC:o=2d\	!	!	!	!	!	!	!	!	!	!	!
4F\	.	4F\	.	.	.	.	4A\	.	.	.	.	4c\]	.	.	.	.	2d\)	.	.	.	.	2ryy	2r	2r	4cc\	2dd\	4f\	4a\
8.G\L	.	8.G\L	.	.	.	.	8.G\L	.	.	.	.	8.B\L	.	.	.	.	.	.	.	.	.	.	.	.	8.b\L	.	8.g\L	8.g\L
!	!	!LO:SIC:o=16F\Jk	!	!	!	!	!LO:SIC:o=16A\Jk	!	!	!	!	!LO:SIC:o=16A\Jk	!	!	!	!	!	!	!	!	!	!	!	!	!	!	!	!
16F\Jk	.	16F\Jk)	.	.	.	.	16A\Jk)	.	.	.	.	16A\Jk)	.	.	.	.	.	.	.	.	.	.	.	.	16a\Jk	.	16f\Jk	16a\Jk
!	!	!	!	!	!	!	!LO:LB:g=original	!	!	!	!	!	!	!	!	!	!	!	!	!	!	!	!	!	!	!	!	!
=45	=45	=45	=45	=45	=45	=45	=45	=45	=45	=45	=45	=45	=45	=45	=45	=45	=45	=45	=45	=45	=45	=45	=45	=45	=45	=45	=45	=45
4E\	.	4E\	-cem	-cem,	.	.	4G#X\	-cem,	-cem,	.	.	4B\	-cem	-cem,	.	.	4e\	-cem.	-cem,	.	.	2ryy	2r	2r	4e/	4ee\	4e\	4g#X\
4r	.	4r	.	.	.	.	8.G#\	do-	do-	.	.	8.B\	do-	do-	.	.	4r	.	.	.	.	.	.	.	4r	4r	4r	4r
.	.	.	.	.	.	.	16G#\	-no	-na	.	.	16B\	-na	-na	.	.	.	.	.	.	.	.	.	.	.	.	.	.
!	!	!LO:LB:g=original	!	!	!	!	!	!	!	!	!	!LO:LB:g=original	!	!	!	!	!	!	!	!	!	!	!	!	!	!LO:LB:g=original	!LO:LB:g=original	!
=46	=46	=46	=46	=46	=46	=46	=46	=46	=46	=46	=46	=46	=46	=46	=46	=46	=46	=46	=46	=46	=46	=46	=46	=46	=46	=46	=46	=46
!LO:N:vis=1	!	!	!	!	!	!	!	!	!	!	!	!LO:SIC:o=2B\	!	!	!	!	!	!	!	!	!	!	!	!	!LO:N:vis=1	!LO:N:vis=1	!LO:TX:a:t=1.:mod=	!LO:TX:a:t=1:mod=
2r	.	4r	.	.	.	.	2G#X\	no-	no-	.	.	[2B\	no-	no-	.	.	4r	.	.	.	.	2ryy	2r	2r	2r	2r	2r	2r
.	.	8.E\	Do-	do-	.	.	.	.	.	.	.	.	.	.	.	.	8.e\	do-	do-	.	.	.	.	.	.	.	.	.
.	.	16E\	-na	-na	.	.	.	.	.	.	.	.	.	.	.	.	16e\	-na	-na	.	.	.	.	.	.	.	.	.
!	!	!	!	!	!	!	!	!	!	!	!	!	!	!	!	!	!	!	!	!	!	!	!	!	!	!	!	!LO:LB:g=original
=47	=47	=47	=47	=47	=47	=47	=47	=47	=47	=47	=47	=47	=47	=47	=47	=47	=47	=47	=47	=47	=47	=47	=47	=47	=47	=47	=47	=47
!	!	!	!	!	!	!	!	!	!	!	!	!LO:SIC:o=4B\	!	!	!	!	!	!	!	!	!	!	!	!	!	!	!	!
4r	.	4D\	no-	no-	.	.	2Gn\	-bis	-bis	.	.	4B\]	.	.	.	.	4f\	no-	no-	.	.	2ryy	2r	2r	4r	4r	4r	4r
4C/	.	4C\	-bis	-bis	.	.	.	.	.	.	.	[4c\	-bis	-bis	.	.	4e\	-bis	-bis	.	.	.	.	.	4cc\	4ee\	4c/	4g\
=48	=48	=48	=48	=48	=48	=48	=48	=48	=48	=48	=48	=48	=48	=48	=48	=48	=48	=48	=48	=48	=48	=48	=48	=48	=48	=48	=48	=48
!	!	!LO:SIC:o=4F\	!	!	!	!	!LO:SIC:o=4A\	!	!	!	!	!	!	!	!	!	!	!	!	!	!	!	!	!	!	!	!	!
4F\	.	(4F\	pa-	pa-	.	.	(4A\	pa-	pa-	.	.	4c\]	.	.	.	.	2d\	pa-	pa-	.	.	2ryy	2r	2r	4cc\	2dd\	4f\	4a\
!LO:TX:a:t=P:problem=mixed beam	!	!LO:TX:a:t=P:problem=mixed beam	!	!	!	!	!LO:SIC:o=4G\	!	!	!	!	!	!	!	!	!	!	!	!	!	!	!	!	!	!	!	!	!
8G\L	.	8G\L	.	.	.	.	4G\)	.	.	.	.	4B\	pa-	pa-	.	.	.	.	.	.	.	.	.	.	4b\	.	4g\	4g\
!	!	!LO:SIC:o=8GG/J	!	!	!	!	!	!	!	!	!	!	!	!	!	!	!	!	!	!	!	!	!	!	!	!	!	!
8GG/J	.	8GG/J)	.	.	.	.	.	.	.	.	.	.	.	.	.	.	.	.	.	.	.	.	.	.	.	.	.	.
=49	=49	=49	=49	=49	=49	=49	=49	=49	=49	=49	=49	=49	=49	=49	=49	=49	=49	=49	=49	=49	=49	=49	=49	=49	=49	=49	=49	=49
!	!	!	!	!	!	!	!	!	!	!	!	!	!	!	!	!	!	!	!	!	!	!	!LO:SIC:o=2r	!LO:SIC:o=2r	!	!	!	!
2AA;/	.	2AA;/	-cem	-cem.	.	.	2F#X;\	-cem.	-cem.	.	.	2c;\	-cem.	-cem.	.	.	2c;\	-cem.	-cem.	.	.	2ryy	2r;	2r;	2cc;\	2cc;\	2e-X;\	2f#X;\
!	!	!	!	!	!	!	!LO:TX:b:rj:t=V.S.:mod=	!	!	!	!	!	!	!	!	!	!	!	!	!	!	!	!	!	!	!	!	!
!	!	!	!	!	!	!	!LO:PB:g=original	!	!	!	!	!	!	!	!	!	!	!	!	!	!	!	!	!	!LO:LB:g=original	!	!	!
=50||	=50||	=50||	=50||	=50||	=50||	=50||	=50||	=50||	=50||	=50||	=50||	=50||	=50||	=50||	=50||	=50||	=50||	=50||	=50||	=50||	=50||	=50||	=50||	=50||	=50||	=50||	=50||	=50||
!!!OMD:
!!!OMD-mod: Allegro ma non troppo
*M6/8	*	*M6/8	*	*	*	*	*M6/8	*	*	*	*	*M6/8	*	*	*	*	*M6/8	*	*	*	*	*M6/8	*M6/8	*M6/8	*M6/8	*M6/8	*M6/8	*M6/8
!LO:TX:a:B:t=Allo ma non troppo:mod=	!	!LO:TX:a:B:t=Allegro ma non troppo:mod=	!	!	!	!	!LO:TX:a:B:t=Allo ma non troppo:mod=	!	!	!	!	!LO:TX:a:B:t=Allo ma non troppo:mod=	!	!	!	!	!LO:TX:a:B:t=Allo ma non troppo.:mod=	!	!	!	!	!	!LO:TX:a:B:t=Alle ma non troppo.:mod=	!LO:TX:a:B:t=Allo ma non troppo.:mod=	!LO:TX:a:B:t=Allegro ma non troppo:mod=	!	!LO:TX:a:B:t=Allo ma non troppo:mod=	!LO:TX:a:B:t=Allo ma non troppo.:mod=
!	!	!	!	!	!	!	!	!	!	!	!	!LO:SIC:o=4.G/	!	!	!	!	!LO:SIC:o=4.B\	!	!	!	!	!	!	!	!	!	!	!
[2.GG/	.	2.GG/	Do-	Do-	.	.	2.G\	Do-	Do-	.	.	([4.G/	Do-	Do-	.	.	(4.B\	Do-	Do-	.	.	2.ryy	[2.G/	[2.g/	[2.G/	[2.g/	[2.g\	[2.g\
!	!	!	!	!	!	!	!	!	!	!	!	!LO:SIC:o=4.G/	!	!	!	!	!	!	!	!	!	!	!	!	!	!	!	!
.	.	.	.	.	.	.	.	.	.	.	.	4.G/]	.	.	.	.	4.c\	.	.	.	.	.	.	.	.	.	.	.
=51	=51	=51	=51	=51	=51	=51	=51	=51	=51	=51	=51	=51	=51	=51	=51	=51	=51	=51	=51	=51	=51	=51	=51	=51	=51	=51	=51	=51
4.GG/]	.	[4.GG/	-na	-na,	.	.	[4.G\	-na	-na,	.	.	4.A#X\	.	.	.	.	4.c#X\	.	.	.	.	2.ryy	4.G/]	4.g/]	4.G/]	4.g/]	4.g\]	4.g\]
4GG/	.	4GG/]	.	.	.	.	4G\]	.	.	.	.	4B\	.	.	.	.	4d\	.	.	.	.	.	4G/	4g/	4G/	4g/	4g\	4g\
8r	.	8r	.	.	.	.	8r	.	.	.	.	8c\	.	.	.	.	8e\	.	.	.	.	.	8r	8r	8r	8r	8r	8r
!	!	!LO:LB:g=original	!	!	!	!	!	!	!	!	!	!	!	!	!	!	!LO:LB:g=original	!	!	!	!	!	!	!	!	!	!	!
=52	=52	=52	=52	=52	=52	=52	=52	=52	=52	=52	=52	=52	=52	=52	=52	=52	=52	=52	=52	=52	=52	=52	=52	=52	=52	=52	=52	=52
!LO:TX:b:t=3.:mod=	!	!LO:TX:a:t=3.:mod=	!	!	!	!	!LO:TX:a:t=3.:mod=	!	!	!	!	!	!	!	!	!	!LO:LB:g=original	!	!	!	!	!	!LO:TX:a:t=3.:mod=	!LO:TX:b:t=3.:mod=	!LO:TX:b:t=3.:mod=	!LO:TX:a:t=3.:mod=	!LO:TX:b:t=3.:mod=	!LO:TX:b:t=3.:mod=
!LO:N:vis=0	!	!LO:N:vis=0	!	!	!	!	!LO:N:vis=0	!	!	!	!	!	!	!	!	!	!	!	!	!	!	!	!LO:N:vis=0	!LO:N:vis=0	!LO:N:vis=0	!LO:N:vis=0	!LO:N:vis=0	!LO:N:vis=0
1.r	.	1.r	.	.	.	.	1.r	.	.	.	.	[4.d\	.	.	.	.	[4.f\	.	.	.	.	2.ryy	1.r	1.r	1.r	1.r	1.r	1.r
.	.	.	.	.	.	.	.	.	.	.	.	8.d\L]	.	.	.	.	8.f\L]	.	.	.	.	.	.	.	.	.	.	.
.	.	.	.	.	.	.	.	.	.	.	.	16c\K	.	.	.	.	16e\K	.	.	.	.	.	.	.	.	.	.	.
.	.	.	.	.	.	.	.	.	.	.	.	8B\J	.	.	.	.	8d\J	.	.	.	.	.	.	.	.	.	.	.
!	!	!	!	!	!	!	!	!	!	!	!	!LO:LB:g=original	!	!	!	!	!	!	!	!	!	!	!	!	!	!	!	!
=53	=53	=53	=53	=53	=53	=53	=53	=53	=53	=53	=53	=53	=53	=53	=53	=53	=53	=53	=53	=53	=53	=53	=53	=53	=53	=53	=53	=53
.	.	.	.	.	.	.	.	.	.	.	.	4A#X\	.	.	.	.	4c#X\	.	.	.	.	2.ryy	.	.	.	.	.	.
.	.	.	.	.	.	.	.	.	.	.	.	8B\	.	.	.	.	8d\	.	.	.	.	.	.	.	.	.	.	.
.	.	.	.	.	.	.	.	.	.	.	.	8.d\L	.	.	.	.	8.f\L	.	.	.	.	.	.	.	.	.	.	.
.	.	.	.	.	.	.	.	.	.	.	.	16c\K	.	.	.	.	16e\K	.	.	.	.	.	.	.	.	.	.	.
.	.	.	.	.	.	.	.	.	.	.	.	8B\J	.	.	.	.	8d\J	.	.	.	.	.	.	.	.	.	.	.
=54	=54	=54	=54	=54	=54	=54	=54	=54	=54	=54	=54	=54	=54	=54	=54	=54	=54	=54	=54	=54	=54	=54	=54	=54	=54	=54	=54	=54
2.r	.	2.r	.	.	.	.	2.r	.	.	.	.	8.A#X\L	.	.	.	.	8.c#X\L	.	.	.	.	2.ryy	2.r	2.r	2.r	2.r	2.r	2.r
.	.	.	.	.	.	.	.	.	.	.	.	16B\K	.	.	.	.	16d\K	.	.	.	.	.	.	.	.	.	.	.
!	!	!	!	!	!	!	!	!	!	!	!	!LO:SIC:o=8c\J	!	!	!	!	!	!	!	!	!	!	!	!	!	!	!	!
.	.	.	.	.	.	.	.	.	.	.	.	8c\J)	.	.	.	.	8e\J	.	.	.	.	.	.	.	.	.	.	.
.	.	.	.	.	.	.	.	.	.	.	.	4d\	-na	-na,	.	.	8.f\L	.	.	.	.	.	.	.	.	.	.	.
.	.	.	.	.	.	.	.	.	.	.	.	.	.	.	.	.	16A\K	.	.	.	.	.	.	.	.	.	.	.
.	.	.	.	.	.	.	.	.	.	.	.	8r	.	.	.	.	8B\J	.	.	.	.	.	.	.	.	.	.	.
!	!	!LO:TX:b:rj:t=V.S.:mod=	!	!	!	!	!	!	!	!	!	!	!	!	!	!	!	!	!	!	!	!	!	!	!	!	!	!
!LO:LB:g=original	!	!LO:PB:g=original	!	!	!	!	!	!	!	!	!	!	!	!	!	!	!	!	!	!	!	!	!	!LO:LB:g=original	!	!	!	!
=55	=55	=55	=55	=55	=55	=55	=55	=55	=55	=55	=55	=55	=55	=55	=55	=55	=55	=55	=55	=55	=55	=55	=55	=55	=55	=55	=55	=55
!	!	!	!	!	!	!	!LO:SIC:o=4.E\	!	!	!	!	!	!	!	!	!	!LO:SIC:o=4.c\	!	!	!	!	!	!	!	!	!	!	!LO:SIC:o=4.g\
[4.C/	.	4.C/	do-	do-	.	.	([4.E\	do-	do-	.	.	4.G/	do-	do-	.	.	[4.c\	.	.	.	.	2.ryy	8.c/L	8.c/L	[4.e/	[4.cc\	[4.c/	[4.g\
.	.	.	.	.	.	.	.	.	.	.	.	.	.	.	.	.	.	.	.	.	.	.	16e/K	16e/K	.	.	.	.
.	.	.	.	.	.	.	.	.	.	.	.	.	.	.	.	.	.	.	.	.	.	.	8g/J	8g/J	.	.	.	.
!	!	!	!	!	!	!	!LO:SIC:o=8.E\L	!	!	!	!	!	!	!	!	!	!LO:SIC:o=8.c\L	!	!	!	!	!	!	!	!	!	!	!LO:SIC:o=4g\
4C/]	.	4.C/	-na	-na,	.	.	8.E\L]	.	.	.	.	4.G/	-na	-na,	.	.	8.c\L]	.	.	.	.	.	4cc\	4cc\	4e/]	4cc\]	4c/]	4g\]
!	!	!	!	!	!	!	!LO:SIC:o=16D\Jk	!	!	!	!	!	!	!	!	!	!LO:SIC:o=16B\Jk	!	!	!	!	!	!	!	!	!	!	!
.	.	.	.	.	.	.	16D\Jk)	.	.	.	.	.	.	.	.	.	16B\Jk)	.	.	.	.	.	.	.	.	.	.	.
8r	.	.	.	.	.	.	8E\	-na	-na	.	.	.	.	.	.	.	8c\	-na	-na	.	.	.	8r	8r	8r	8r	8r	8r
!	!	!	!	!	!	!	!	!	!	!	!	!	!	!	!	!	!	!	!	!	!	!	!LO:LB:g=original	!	!	!	!	!
=56	=56	=56	=56	=56	=56	=56	=56	=56	=56	=56	=56	=56	=56	=56	=56	=56	=56	=56	=56	=56	=56	=56	=56	=56	=56	=56	=56	=56
*	*	*	*	*	*	*	*	*	*	*	*	*	*ij	*ij	*	*	*	*	*	*	*	*	*	*	*	*	*	*
!	!	!	!	!	!	!	!	!	!	!	!	!	!	!	!	!	!	!	!	!	!	!	!	!LO:SIC:o=4.dd\	!	!	!	!LO:SIC:o=4.g\
[4.GG/	.	4GG/	do-	do-	.	.	4G\	no-	no-	.	.	4B\	do-	do-	.	.	4d\	no-	no-	.	.	2.ryy	[4.g/	[4.dd\	[4.b\	[4.dd\	[4.g\	[4.g\
.	.	8GG/	-na	-na	.	.	8G\	-bis	-bis,	.	.	8B\	-na	-na	.	.	8d\	-bis	-bis,	.	.	.	.	.	.	.	.	.
*	*	*	*	*	*	*	*	*ij	*ij	*	*	*	*Xij	*Xij	*	*	*	*	*	*	*	*	*	*	*	*	*	*
!	!	!	!	!	!	!	!	!	!	!	!	!	!	!	!	!	!	!	!	!	!	!	!	!LO:SIC:o=4dd\	!	!	!	!LO:SIC:o=4g\
4GG/]	.	4G\	no-	no-	.	.	4G\	no-	no-	.	.	8.B\L	no-	no-	.	.	8.d\L	no-	no-	.	.	.	4g/]	4dd\]	4b\]	4dd\]	4g\]	4g\]
.	.	.	.	.	.	.	.	.	.	.	.	16A#X\Jk	.	.	.	.	16c#X\Jk	.	.	.	.	.	.	.	.	.	.	.
8r	.	8G\	-bis	-bis	.	.	8G\	-bis	-bis	.	.	8B\	-bis	-bis	.	.	8d\	-bis	-bis	.	.	.	8r	8r	8r	8r	8r	8r
*	*	*	*	*	*	*	*	*Xij	*Xij	*	*	*	*	*	*	*	*	*	*	*	*	*	*	*	*	*	*	*
!	!	!	!	!	!	!	!	!	!	!	!	!	!	!	!	!	!LO:LB:g=original	!	!	!	!	!	!	!	!	!	!	!
=57	=57	=57	=57	=57	=57	=57	=57	=57	=57	=57	=57	=57	=57	=57	=57	=57	=57	=57	=57	=57	=57	=57	=57	=57	=57	=57	=57	=57
!	!	!	!	!	!	!	!	!	!	!	!	!	!	!	!	!	!	!	!	!	!	!	!LO:TX:a:t=5.:mod=	!LO:TX:a:t=5.:mod=	!	!	!	!
!	!	!	!	!	!	!	!	!	!	!	!	!	!	!	!	!	!	!	!	!	!	!	!LO:N:vis=00	!LO:N:vis=00	!	!	!	!
[4.C/	.	4.C/	pa-	pa-	.	.	4.G\	pa-	pa-	.	.	4.c\	pa-	pa-	.	.	4.e\	pa-	pa-	.	.	2.ryy	0.r	0.r	2.cc\	2.ee\	2.c/	2.g\
4C/]	.	4C/	-cem	-cem,	.	.	4E\	-cem	-cem,	.	.	4G/	-cem	-cem,	.	.	4c\	-cem	-cem,	.	.	.	.	.	.	.	.	.
8r	.	8r	.	.	.	.	8r	.	.	.	.	8r	.	.	.	.	8r	.	.	.	.	.	.	.	.	.	.	.
!	!	!	!	!	!	!	!LO:LB:g=original	!	!	!	!	!LO:LB:g=original	!	!	!	!	!	!	!	!	!	!	!	!	!	!LO:LB:g=original	!LO:LB:g=original	!LO:LB:g=original
=58	=58	=58	=58	=58	=58	=58	=58	=58	=58	=58	=58	=58	=58	=58	=58	=58	=58	=58	=58	=58	=58	=58	=58	=58	=58	=58	=58	=58
!	!LO:DY:b	!	!	!	!LO:DY:b	!LO:DY:b	!	!	!	!LO:DY:a:t=p&colon;	!LO:DY:a:t=p&colon;	!	!	!	!LO:DY:a	!LO:DY:a	!	!	!	!LO:DY:a	!LO:DY:a	!	!	!	!LO:N:vis=1	!LO:N:vis=1	!LO:TX:a:t=1:mod=	!LO:N:vis=1
4.C/	p	4.C/	pa-	pa-	p	p	4.G\	pa-	pa-	p	p	4.c\	pa-	pa-	p	p	4.e\	pa-	pa-	p	p	2.ryy	.	.	2.r	2.r	2.r	2.r
4C/	.	4C/	-cem	-cem,	.	.	4E\	-cem	-cem,	.	.	4G\	-cem	-cem,	.	.	4c\	-cem	-cem,	.	.	.	.	.	.	.	.	.
8r	.	8r	.	.	.	.	8r	.	.	.	.	8r	.	.	.	.	8r	.	.	.	.	.	.	.	.	.	.	.
=59	=59	=59	=59	=59	=59	=59	=59	=59	=59	=59	=59	=59	=59	=59	=59	=59	=59	=59	=59	=59	=59	=59	=59	=59	=59	=59	=59	=59
!	!	!LO:SIC:o=2.C/	!	!	!	!	!	!	!	!	!	!	!	!	!	!	!	!	!	!	!	!	!	!	!	!	!	!
2.C/	.	([2.C/	do-	do-	.	.	(4.C\	do-	do-	.	.	(4.A\	do-	do-	.	.	(4.f\	do-	do-	.	.	2.ryy	.	.	4.cc\	4.cc\	2.f\	4.a\
!	!	!	!	!	!	!	!LO:SIC:o=4.F\)	!	!	!	!	!	!	!	!	!	!	!	!	!	!	!	!	!	!	!	!	!
.	.	.	.	.	.	.	4.F\	.	.	.	.	4.B\)	.	.	.	.	4.d\)	.	.	.	.	.	.	.	4.b\	4.dd\	.	4.f\
=60	=60	=60	=60	=60	=60	=60	=60	=60	=60	=60	=60	=60	=60	=60	=60	=60	=60	=60	=60	=60	=60	=60	=60	=60	=60	=60	=60	=60
!	!	!LO:SIC:o=8.C/L	!	!	!	!	!	!	!	!	!	!	!	!	!	!	!	!	!	!	!	!	!	!	!	!	!	!
8C/	.	8.C/L]	.	.	.	.	8.E\L	.	.	.	.	4c\	-na	-na	.	.	4c\	-na	-na	.	.	2.ryy	.	.	8cc\	8.cc\L	8c/	8.e\L
8r	.	.	.	.	.	.	.	.	.	.	.	.	.	.	.	.	.	.	.	.	.	.	.	.	8r	.	8r	.
!	!	!LO:SIC:o=16D/Jk	!	!	!	!	!LO:SIC:o=16F\Jk	!	!	!	!	!	!	!	!	!	!	!	!	!	!	!	!	!	!	!	!	!
.	.	16D/Jk)	.	.	.	.	16F\Jk)	.	.	.	.	.	.	.	.	.	.	.	.	.	.	.	.	.	.	16dd\K	.	16f\K
8r	.	8E/	-na	-na	.	.	8G\	-na	-na	.	.	8r	.	.	.	.	8r	.	.	.	.	.	.	.	8r	8ee\J	8r	8g\J
!	!	!	!	!	!	!	!	!	!	!	!	!	!	!	!	!	!LO:SIC:o=4ryy	!	!	!	!	!	!	!	!	!	!	!
8C/	.	8.E/L	no-	no-	.	.	8.G\L	no-	no-	.	.	4r	.	.	.	.	4r	.	.	.	.	.	.	.	8cc\	8.ee\L	8c/	8.g\L
8r	.	.	.	.	.	.	.	.	.	.	.	.	.	.	.	.	.	.	.	.	.	.	.	.	8r	.	8r	.
.	.	16D/Jk	.	.	.	.	16F\Jk	.	.	.	.	.	.	.	.	.	.	.	.	.	.	.	.	.	.	16dd\K	.	16f\K
!	!	!	!	!	!	!	!	!	!	!	!	!	!	!	!	!	!LO:SIC:o=8ryy	!	!	!	!	!	!	!	!	!	!	!
8r	.	8C/	-bis	-bis,	.	.	8E\	-bis	-bis,	.	.	8r	.	.	.	.	8r	.	.	.	.	.	.	.	8r	8cc\J	8r	8e\J
!	!	!LO:LB:g=original	!	!	!	!	!	!	!	!	!	!	!	!	!	!	!	!	!	!	!	!	!	!	!LO:LB:g=original	!	!	!
=61	=61	=61	=61	=61	=61	=61	=61	=61	=61	=61	=61	=61	=61	=61	=61	=61	=61	=61	=61	=61	=61	=61	=61	=61	=61	=61	=61	=61
!	!	!LO:SIC:o=2.C/	!	!	!	!	!	!	!	!	!	!	!	!	!	!	!	!	!	!	!	!	!	!	!	!	!	!
2.C/	.	([2.C/	do-	do-	.	.	(4.C/	do-	do-	.	.	(4.A\	no-	no-	.	.	(4.f\	no-	no-	.	.	2.ryy	2.r	2.r	8cc\	8dd\	2.f\	4.a\
.	.	.	.	.	.	.	.	.	.	.	.	.	.	.	.	.	.	.	.	.	.	.	.	.	8r	8r	.	.
.	.	.	.	.	.	.	.	.	.	.	.	.	.	.	.	.	.	.	.	.	.	.	.	.	8r	8r	.	.
!	!	!	!	!	!	!	!LO:SIC:o=4.F\)	!	!	!	!	!LO:SIC:o=4.B\	!	!	!	!	!	!	!	!	!	!	!	!	!	!	!	!
.	.	.	.	.	.	.	4.F\	.	.	.	.	4.B\)	.	.	.	.	4.d\)	.	.	.	.	.	.	.	8b\	8dd\	.	4.f\
.	.	.	.	.	.	.	.	.	.	.	.	.	.	.	.	.	.	.	.	.	.	.	.	.	8r	8r	.	.
.	.	.	.	.	.	.	.	.	.	.	.	.	.	.	.	.	.	.	.	.	.	.	.	.	8r	8r	.	.
=62	=62	=62	=62	=62	=62	=62	=62	=62	=62	=62	=62	=62	=62	=62	=62	=62	=62	=62	=62	=62	=62	=62	=62	=62	=62	=62	=62	=62
!	!	!LO:SIC:o=8.C/L	!	!	!	!	!	!	!	!	!	!LO:SIC:o=4c\)	!	!	!	!	!	!	!	!	!	!	!	!	!	!	!	!
8C/	.	8.C/L]	.	.	.	.	8.E\L	.	.	.	.	4c\	-bis	-bis,	.	.	4c\	-bis	-bis,	.	.	2.ryy	8e/	8cc\	8cc\	8.cc\L	8c/	8.e\L
8r	.	.	.	.	.	.	.	.	.	.	.	.	.	.	.	.	.	.	.	.	.	.	8r	8r	8r	.	8r	.
!	!	!LO:SIC:o=16D/Jk	!	!	!	!	!LO:SIC:o=16F\Jk	!	!	!	!	!	!	!	!	!	!	!	!	!	!	!	!	!	!	!	!	!
.	.	16D/Jk)	.	.	.	.	16F\Jk)	.	.	.	.	.	.	.	.	.	.	.	.	.	.	.	.	.	.	16dd\K	.	16f\K
8r	.	8E/	-na	-na	.	.	8G\	-na	-na	.	.	8r	.	.	.	.	8r	.	.	.	.	.	8r	8r	8r	8ee\J	8r	8g\J
8C/	.	8.E/L	no-	no-	.	.	8.G\L	no-	no-	.	.	4r	.	.	.	.	4r	.	.	.	.	.	8e/	8cc\	8cc\	8.ee\L	8c/	8.g\L
8r	.	.	.	.	.	.	.	.	.	.	.	.	.	.	.	.	.	.	.	.	.	.	8r	8r	8r	.	8r	.
.	.	16D/Jk	.	.	.	.	16F\Jk	.	.	.	.	.	.	.	.	.	.	.	.	.	.	.	.	.	.	16dd\K	.	16f\K
8r	.	8C/	-bis	-bis,	.	.	8E\	-bis	-bis,	.	.	8r	.	.	.	.	8r	.	.	.	.	.	8r	8r	8r	8cc\J	8r	8e\J
!LO:LB:g=original	!	!	!	!	!	!	!LO:LB:g=original	!	!	!	!	!	!	!	!	!	!	!	!	!	!	!	!	!	!	!	!	!
=63	=63	=63	=63	=63	=63	=63	=63	=63	=63	=63	=63	=63	=63	=63	=63	=63	=63	=63	=63	=63	=63	=63	=63	=63	=63	=63	=63	=63
8GG/	.	4GG/	do-	do-	.	.	4G\	do-	do-	.	.	4B\	do-	do-	.	.	4d\	do-	do-	.	.	2.ryy	8g/	8dd\	8b\	8dd\	8g\	8g\
8r	.	.	.	.	.	.	.	.	.	.	.	.	.	.	.	.	.	.	.	.	.	.	8r	8r	8r	8r	8r	8r
8r	.	8GG/	-na	-na	.	.	8G\	-na	-na	.	.	8B\	-na	-na	.	.	8d\	-na	-na	.	.	.	8r	8r	8r	8r	8r	8r
8G\	.	4G\	no-	no-	.	.	4G\	no-	no-	.	.	8.B\L	no-	no-	.	.	8.d\L	no-	no-	.	.	.	8g/	8dd\	8b\	8dd\	8g\	8g\
8r	.	.	.	.	.	.	.	.	.	.	.	.	.	.	.	.	.	.	.	.	.	.	8r	8r	8r	8r	8r	8r
!	!	!	!	!	!	!	!	!	!	!	!	!LO:SIC:o=16A#X\	!	!	!	!	!LO:SIC:o=16c#X\K	!	!	!	!	!	!	!	!	!	!	!
.	.	.	.	.	.	.	.	.	.	.	.	16A#X\J	.	.	.	.	16c#X\KJ	.	.	.	.	.	.	.	.	.	.	.
!	!	!	!	!	!	!	!	!	!	!	!	!LO:SIC:o=8B\J	!	!	!	!	!LO:SIC:o=8d\J	!	!	!	!	!	!	!	!	!	!	!
8r	.	8G\	-bis	-bis	.	.	8G\	-bis	-bis	.	.	8B\	-bis	-bis	.	.	8d\	-bis	-bis	.	.	.	8r	8r	8r	8r	8r	8r
!	!	!	!	!	!	!	!	!	!	!	!	!LO:LB:g=original	!	!	!	!	!LO:LB:g=original	!	!	!	!	!	!	!	!	!	!	!
=64	=64	=64	=64	=64	=64	=64	=64	=64	=64	=64	=64	=64	=64	=64	=64	=64	=64	=64	=64	=64	=64	=64	=64	=64	=64	=64	=64	=64
4.C/	.	4.C/	pa-	pa-	.	.	4.G\	pa-	pa-	.	.	4.c\	pa-	pa-	.	.	4.e\	pa-	pa-	.	.	2.ryy	4.e/	4.cc\	4.cc\	4.ee\	4.c/	4.g\
*	*	*	*	*	*	*	*	*	*	*	*	*	*	*	*	*	*	*	*	*	*	*	*	*	*tremolo	*	*tremolo	*
!	!	!	!	!	!	!	!	!	!	!	!	!	!	!	!	!	!	!	!	!	!	!	!	!	!	!	!	!LO:TX:a:t=P:problem=mixed beam
4C/	.	4C/	-cem	-cem,	.	.	4E\	-cem	-cem,	.	.	4G\	-cem	-cem,	.	.	4c\	-cem	-cem,	.	.	.	4e/	4cc\	8cc\L	8ee\L	8c/L	8g\L
.	.	.	.	.	.	.	.	.	.	.	.	.	.	.	.	.	.	.	.	.	.	.	.	.	8cc\	8cc\	8c/	8c/
8r	.	8r	.	.	.	.	8r	.	.	.	.	8r	.	.	.	.	8r	.	.	.	.	.	8r	8r	8cc\J	8cc\J	8c/J	8c/J
*	*	*	*	*	*	*	*	*	*	*	*	*	*	*	*	*	*	*	*	*	*	*	*	*	*Xtremolo	*	*Xtremolo	*
!	!	!	!	!	!	!	!	!	!	!	!	!	!	!	!	!	!	!	!	!	!	!	!	!	!	!LO:LB:g=original	!	!LO:LB:g=original
=65	=65	=65	=65	=65	=65	=65	=65	=65	=65	=65	=65	=65	=65	=65	=65	=65	=65	=65	=65	=65	=65	=65	=65	=65	=65	=65	=65	=65
!	!	!	!	!	!	!	!	!	!	!	!	!	!	!	!	!	!	!	!	!	!	!	!LO:TX:a:t=3.:mod=	!LO:TX:a:t=3.:mod=	!	!	!	!
!	!	!LO:SIC:o=2.C/	!	!	!	!	!	!	!	!	!	!	!	!	!	!	!	!	!	!	!	!	!LO:N:vis=0	!LO:N:vis=0	!	!	!	!
2.C/	.	([2.C/	do-	do-	.	.	(4.C\	do-	do-	.	.	(4.A\	do-	do-	.	.	(4.f\	do-	do-	.	.	2.ryy	1.r	1.r	4.cc\	4.cc\	2.f\	4.a\
!	!	!	!	!	!	!	!LO:SIC:o=4.F\)	!	!	!	!	!	!	!	!	!	!	!	!	!	!	!	!	!	!	!	!	!
.	.	.	.	.	.	.	4.F\	.	.	.	.	4.B\)	.	.	.	.	4.d\)	.	.	.	.	.	.	.	4.b\	4.dd\	.	4.f\
!	!	!	!	!	!	!	!	!	!	!	!	!	!	!	!	!	!	!	!	!	!	!	!	!	!	!	!LO:LB:g=original	!
=66	=66	=66	=66	=66	=66	=66	=66	=66	=66	=66	=66	=66	=66	=66	=66	=66	=66	=66	=66	=66	=66	=66	=66	=66	=66	=66	=66	=66
!	!	!LO:SIC:o=8.C/L	!	!	!	!	!	!	!	!	!	!	!	!	!	!	!	!	!	!	!	!	!	!	!	!	!	!
8C/	.	8.C/L]	.	.	.	.	8.E\L	.	.	.	.	4c\	-na	-na	.	.	4c\	-na	-na	.	.	2.ryy	.	.	8cc\	8.cc\L	8c/	8.e\L
8r	.	.	.	.	.	.	.	.	.	.	.	.	.	.	.	.	.	.	.	.	.	.	.	.	8r	.	8r	.
!	!	!LO:SIC:o=16D/Jk	!	!	!	!	!LO:SIC:o=16F\Jk	!	!	!	!	!	!	!	!	!	!	!	!	!	!	!	!	!	!	!	!	!
.	.	16D/Jk)	.	.	.	.	16F\Jk)	.	.	.	.	.	.	.	.	.	.	.	.	.	.	.	.	.	.	16dd\K	.	16f\K
8r	.	8E/	-na	-na	.	.	8G\	-na	-na	.	.	8r	.	.	.	.	8r	.	.	.	.	.	.	.	8r	8ee\J	8r	8g\J
8C/	.	8.E/L	no-	no-	.	.	8.G\L	no-	no-	.	.	4r	.	.	.	.	4r	.	.	.	.	.	.	.	8cc\	8.ee\L	8c/	8.g\L
8r	.	.	.	.	.	.	.	.	.	.	.	.	.	.	.	.	.	.	.	.	.	.	.	.	8r	.	8r	.
.	.	16D/Jk	.	.	.	.	16F\Jk	.	.	.	.	.	.	.	.	.	.	.	.	.	.	.	.	.	.	16dd\K	.	16f\K
8r	.	8C/	-bis	-bis,	.	.	8E\	-bis	-bis,	.	.	8r	.	.	.	.	8r	.	.	.	.	.	.	.	8r	8cc\J	8r	8e\J
!	!	!LO:LB:g=original	!	!	!	!	!	!	!	!	!	!	!	!	!	!	!	!	!	!	!	!	!	!	!	!	!	!
=67	=67	=67	=67	=67	=67	=67	=67	=67	=67	=67	=67	=67	=67	=67	=67	=67	=67	=67	=67	=67	=67	=67	=67	=67	=67	=67	=67	=67
!	!	!LO:SIC:o=2.C/	!	!	!	!	!	!	!	!	!	!	!	!	!	!	!	!	!	!	!	!	!	!	!	!	!	!
2.C/	.	([2.C/	do-	do-	.	.	(4.C/	do-	do-	.	.	(4.A\	no-	no-	.	.	(4.f\	no-	no-	.	.	2.ryy	2.r	2.r	4.cc\	4.cc\	2.f\	4.a\
!	!	!	!	!	!	!	!LO:SIC:o=4.F\)	!	!	!	!	!	!	!	!	!	!	!	!	!	!	!	!	!	!	!	!	!
.	.	.	.	.	.	.	4.F\	.	.	.	.	4.B\	.	.	.	.	4.d\	.	.	.	.	.	.	.	4.b\	4.dd\	.	4.f\
!	!	!	!	!	!	!	!	!	!	!	!	!	!	!	!	!	!	!	!	!	!	!	!	!LO:LB:g=original	!LO:LB:g=original	!	!	!
=68	=68	=68	=68	=68	=68	=68	=68	=68	=68	=68	=68	=68	=68	=68	=68	=68	=68	=68	=68	=68	=68	=68	=68	=68	=68	=68	=68	=68
!	!	!LO:SIC:o=8.C/L	!	!	!	!	!	!	!	!	!	!	!	!	!	!	!	!	!	!	!	!	!	!	!	!	!	!
8C/	.	8.C/L]	.	.	.	.	8.E\L	.	.	.	.	4c\)	-bis	-bis,	.	.	4c\)	-bis	-bis,	.	.	2.ryy	8e/	8cc\	8cc\	8.cc\L	8c/	8.e\L
8r	.	.	.	.	.	.	.	.	.	.	.	.	.	.	.	.	.	.	.	.	.	.	8r	8r	8r	.	8r	.
!	!	!LO:SIC:o=16D/Jk	!	!	!	!	!LO:SIC:o=16F\Jk	!	!	!	!	!	!	!	!	!	!	!	!	!	!	!	!	!	!	!	!	!
.	.	16D/Jk)	.	.	.	.	16F\Jk)	.	.	.	.	.	.	.	.	.	.	.	.	.	.	.	.	.	.	16dd\K	.	16f\K
8r	.	8E/	-na	-na	.	.	8G\	-na	-na	.	.	8r	.	.	.	.	8r	.	.	.	.	.	8r	8r	8r	8ee\J	8r	8g\J
8C/	.	8.E/L	no-	no-	.	.	8.G\L	no-	no-	.	.	4r	.	.	.	.	4r	.	.	.	.	.	8e/	8cc\	8cc\	8.ee\L	8c/	8.g\L
8r	.	.	.	.	.	.	.	.	.	.	.	.	.	.	.	.	.	.	.	.	.	.	8r	8r	8r	.	8r	.
.	.	16D/Jk	.	.	.	.	16F\Jk	.	.	.	.	.	.	.	.	.	.	.	.	.	.	.	.	.	.	16dd\K	.	16f\K
8r	.	8C/	-bis	-bis,	.	.	8E\	-bis	-bis,	.	.	8r	.	.	.	.	8r	.	.	.	.	.	8r	8r	8r	8cc\J	8r	8e\J
!	!	!	!	!	!	!	!LO:LB:g=original	!	!	!	!	!	!	!	!	!	!	!	!	!	!	!	!	!	!	!	!	!
=69	=69	=69	=69	=69	=69	=69	=69	=69	=69	=69	=69	=69	=69	=69	=69	=69	=69	=69	=69	=69	=69	=69	=69	=69	=69	=69	=69	=69
8GG/	.	4GG/	do-	do-	.	.	4G\	do-	do-	.	.	4B\	do-	do-	.	.	4d\	do-	do-	.	.	2.ryy	8g/	8dd\	8b\	8dd\	8g\	8g\
8r	.	.	.	.	.	.	.	.	.	.	.	.	.	.	.	.	.	.	.	.	.	.	8r	8r	8r	8r	8r	8r
8r	.	8GG/	-na	-na	.	.	8G\	-na	-na	.	.	8B\	-na	-na	.	.	8d\	-na	-na	.	.	.	8r	8r	8r	8r	8r	8r
8G\	.	4G\	no-	no-	.	.	4G\	no-	no-	.	.	8.B\L	no-	no-	.	.	8.d\L	no-	no-	.	.	.	8g/	8dd\	8b\	8dd\	8g\	8g\
8r	.	.	.	.	.	.	.	.	.	.	.	.	.	.	.	.	.	.	.	.	.	.	8r	8r	8r	8r	8r	8r
.	.	.	.	.	.	.	.	.	.	.	.	16A#X\KJ	.	.	.	.	16c#X\Jk	.	.	.	.	.	.	.	.	.	.	.
8r	.	8G\	-bis	-bis	.	.	8G\	-bis	-bis	.	.	8B\	-bis	-bis	.	.	8d\	-bis	-bis	.	.	.	8r	8r	8r	8r	8r	8r
!LO:LB:g=original	!	!	!	!	!	!	!	!	!	!	!	!LO:LB:g=original	!	!	!	!	!LO:LB:g=original	!	!	!	!	!	!	!	!	!	!	!
=70	=70	=70	=70	=70	=70	=70	=70	=70	=70	=70	=70	=70	=70	=70	=70	=70	=70	=70	=70	=70	=70	=70	=70	=70	=70	=70	=70	=70
*	*	*	*	*	*	*	*	*ij	*ij	*	*	*	*	*	*	*	*	*	*	*	*	*	*	*	*	*	*	*rep
8C/	.	4C/	pa-	pa-	.	.	4G\	do-	pa-	.	.	8.c\L	pa-	pa-	.	.	8.e\L	pa-	pa-	.	.	2.ryy	8e/	8cc\	8cc\	8ee\	8c/	8g\
8r	.	.	.	.	.	.	.	.	.	.	.	.	.	.	.	.	.	.	.	.	.	.	8r	8r	8r	8r	8r	8r
.	.	.	.	.	.	.	.	.	.	.	.	16d\Jk	.	.	.	.	16f\Jk	.	.	.	.	.	.	.	.	.	.	.
8r	.	8E/	-cem	-cem,	.	.	8G\	-na	-cem,	.	.	8c\	-cem	-cem,	.	.	8e\	-cem	-cem,	.	.	.	8r	8r	8r	8r	8r	8r
8G\	.	4G\	no-	no-	.	.	4G\	no-	no-	.	.	8.B\L	do-	do-	.	.	8.d\L	do-	do-	.	.	.	4r	4r	8b\	8dd\	8g\	8g\
8r	.	.	.	.	.	.	.	.	.	.	.	.	.	.	.	.	.	.	.	.	.	.	.	.	8r	8r	8r	8r
.	.	.	.	.	.	.	.	.	.	.	.	16A#X\Jk	.	.	.	.	16c#X\Jk	.	.	.	.	.	.	.	.	.	.	.
8r	.	8G\	-bis	-bis	.	.	8G\	-bis	-bis	.	.	8B\	-na	-na	.	.	8d\	-na	-na	.	.	.	8r	8r	8r	8r	8r	8r
*	*	*	*	*	*	*	*	*	*	*	*	*	*	*	*	*	*	*	*	*	*	*	*	*	*	*	*	*Xrep
!	!	!	!	!	!	!	!	!	!	!	!	!	!	!	!	!	!	!	!	!	!	!	!LO:LB:g=original	!	!	!	!	!
=71	=71	=71	=71	=71	=71	=71	=71	=71	=71	=71	=71	=71	=71	=71	=71	=71	=71	=71	=71	=71	=71	=71	=71	=71	=71	=71	=71	=71
*	*	*	*	*	*	*	*	*	*	*	*	*	*	*	*	*	*	*	*	*	*	*	*	*	*	*rep	*rep	*rep
!	!	!	!	!	!	!	!	!	!	!	!	!LO:SIC:o=8.c\L	!	!	!	!	!LO:SIC:o=8.e\L	!	!	!	!	!	!	!	!	!	!	!
8C/	.	4C/	pa-	pa-	.	.	4G\	do-	pa-	.	.	(8.c\L	no-	no-	.	.	(8.e\L	no-	no-	.	.	2.ryy	8e/	8cc\	8cc\	8ee\	8c/	8g\
8r	.	.	.	.	.	.	.	.	.	.	.	.	.	.	.	.	.	.	.	.	.	.	8r	8r	8r	8r	8r	8r
.	.	.	.	.	.	.	.	.	.	.	.	16d\K	.	.	.	.	16f\K	.	.	.	.	.	.	.	.	.	.	.
8r	.	8E/	-cem	-cem,	.	.	8G\	-na	-cem,	.	.	8c\J	.	.	.	.	8e\J	.	.	.	.	.	8r	8r	8r	8r	8r	8r
8G\	.	4G\	no-	no-	.	.	4G\	no-	no-	.	.	8.B\L	.	.	.	.	8.d\L	.	.	.	.	.	8g/	8dd\	8b\	8dd\	8g\	8g\
8r	.	.	.	.	.	.	.	.	.	.	.	.	.	.	.	.	.	.	.	.	.	.	8r	8r	8r	8r	8r	8r
!	!	!	!	!	!	!	!	!	!	!	!	!LO:SIC:o=16A#X\Jk	!	!	!	!	!LO:SIC:o=16c#X\Jk	!	!	!	!	!	!	!	!	!	!	!
.	.	.	.	.	.	.	.	.	.	.	.	16A#X\Jk)	.	.	.	.	16c#X\Jk)	.	.	.	.	.	.	.	.	.	.	.
8r	.	8G\	-bis	-bis	.	.	8G\	-bis	-bis	.	.	8B\	-bis	-bis	.	.	8d\	-bis	-bis	.	.	.	8r	8r	8r	8r	8r	8r
*	*	*	*	*	*	*	*	*Xij	*Xij	*	*	*	*	*	*	*	*	*	*	*	*	*	*	*	*	*Xrep	*Xrep	*Xrep
!	!	!LO:LB:g=original	!	!	!	!	!	!	!	!	!	!	!	!	!	!	!	!	!	!	!	!	!	!	!	!LO:LB:g=original	!	!LO:LB:g=original
=72	=72	=72	=72	=72	=72	=72	=72	=72	=72	=72	=72	=72	=72	=72	=72	=72	=72	=72	=72	=72	=72	=72	=72	=72	=72	=72	=72	=72
!LO:SIC:o=4.C/	!	!	!	!	!	!	!	!	!	!	!	!	!	!	!	!	!	!	!	!	!	!	!LO:SIC:o=4.e/	!LO:SIC:o=4.cc\	!LO:SIC:o=4.cc\	!LO:SIC:o=4.ee\	!LO:SIC:o=4.c/	!
[4.C/	.	4.C/	pa-	pa-	.	.	4.G\	pa-	pa-	.	.	4.c\	pa-	pa-	.	.	4.e\	pa-	pa-	.	.	2.ryy	[4.e/	[4.cc\	[4.cc\	[4.ee\	[4.c/	[4.g\
!LO:SIC:o=4C/	!	!	!	!	!	!	!	!	!	!	!	!	!	!	!	!	!	!	!	!	!	!	!LO:SIC:o=4e/	!LO:SIC:o=4cc\	!LO:SIC:o=4cc\	!LO:SIC:o=4ee\	!LO:SIC:o=4c/	!
4C/]	.	4C/	-cem	-cem,	.	.	4E\	-cem	-cem,	.	.	4G\	-cem	-cem,	.	.	4c\	-cem	-cem,	.	.	.	4e/]	4cc\]	4cc\]	4ee\]	4c/]	4g\]
8r	.	8r	.	.	.	.	8r	.	.	.	.	8r	.	.	.	.	8r	.	.	.	.	.	8r	8r	8r	8r	8r	8r
=73	=73	=73	=73	=73	=73	=73	=73	=73	=73	=73	=73	=73	=73	=73	=73	=73	=73	=73	=73	=73	=73	=73	=73	=73	=73	=73	=73	=73
!LO:TX:a:t=2.:mod=	!	!	!	!	!	!	!	!	!	!LO:DY:a	!LO:DY:a	!	!	!	!LO:DY:a	!LO:DY:a	!	!	!	!LO:DY:a	!LO:DY:a	!	!LO:TX:a:t=2.:mod=	!LO:TX:a:t=2.:mod=	!LO:TX:a:t=2.:mod=	!LO:TX:a:t=2.:mod=	!LO:TX:a:t=2.:mod=	!LO:TX:a:t=2.:mod=
!LO:N:vis=0	!	!LO:SIC:o=2.C/	!	!	!LO:DY:b	!LO:DY:b	!LO:SIC:o=2.G\	!	!	!	!	!LO:SIC:o=2.c\	!	!	!	!	!	!	!	!	!	!	!LO:N:vis=0	!LO:N:vis=0	!LO:N:vis=0	!LO:N:vis=0	!LO:N:vis=0	!LO:N:vis=0
1.r	.	[2.C/	pa-	pa-	p	p	(2.G\	pa-	pa-	p	p	(2.c\	pa-	pa-	p	p	(2.e\	pa-	pa-	p	p	2.ryy	1.r	1.r	1.r	1.r	1.r	1.r
=74	=74	=74	=74	=74	=74	=74	=74	=74	=74	=74	=74	=74	=74	=74	=74	=74	=74	=74	=74	=74	=74	=74	=74	=74	=74	=74	=74	=74
!	!	!LO:SIC:o=4.C/	!	!	!	!	!LO:SIC:o=4.E\	!	!	!	!	!LO:SIC:o=4.G/	!	!	!	!	!	!	!	!	!	!	!	!	!	!	!	!
.	.	4.C/]	.	.	.	.	4.E\)	.	.	.	.	4.G/)	.	.	.	.	4.c\)	.	.	.	.	2.ryy	.	.	.	.	.	.
.	.	4C/	-cem	-cem,	.	.	4E\	-cem	-cem,	.	.	4G/	-cem	-cem,	.	.	4c\	-cem	-cem,	.	.	.	.	.	.	.	.	.
.	.	8r	.	.	.	.	8r	.	.	.	.	8r	.	.	.	.	8r	.	.	.	.	.	.	.	.	.	.	.
!	!	!	!	!	!	!	!LO:LB:g=original	!	!	!	!	!	!	!	!	!	!	!	!	!	!	!	!	!	!	!	!LO:LB:g=original	!
=75	=75	=75	=75	=75	=75	=75	=75	=75	=75	=75	=75	=75	=75	=75	=75	=75	=75	=75	=75	=75	=75	=75	=75	=75	=75	=75	=75	=75
!	!	!	!	!	!LO:DY:b	!LO:DY:b	!	!	!	!LO:DY:a:t=f&colon;	!LO:DY:a:t=f&colon;	!	!	!	!LO:DY:a	!LO:DY:a	!	!	!	!LO:DY:a	!LO:DY:a	!	!	!	!	!	!	!
4r	.	4.AA/	do-	do-	f	f	4.F#X\	do-	do-	f	f	4.c\	do-	do-	ff	f	4.d#X\	do-	do-	ff	f	2.ryy	2.c/	2.cc\	4r	4r	4r	4r
8r	.	.	.	.	.	.	.	.	.	.	.	.	.	.	.	.	.	.	.	.	.	.	.	.	8r	8r	8r	8r
!	!LO:DY:b	!	!	!	!	!	!	!	!	!	!	!	!	!	!	!	!	!	!	!	!	!	!	!	!LO:TX:a:t=P:problem:brak początku ligatury	!	!	!
4.AA/	ff	4AA/	-na	-na	.	.	4F#\	-na	-na	.	.	4c\	-na	-na	.	.	4d#\	-na	-na	.	.	.	.	.	[4.cc\	(4.ee-X\	[4.c/	(4.f#X\
.	.	8r	.	.	.	.	8r	.	.	.	.	8r	.	.	.	.	8r	.	.	.	.	.	.	.	.	.	.	.
!	!	!	!	!	!	!	!	!	!	!	!	!LO:LB:g=original	!	!	!	!	!LO:LB:g=original	!	!	!	!	!	!	!	!LO:LB:g=original	!	!	!
=76	=76	=76	=76	=76	=76	=76	=76	=76	=76	=76	=76	=76	=76	=76	=76	=76	=76	=76	=76	=76	=76	=76	=76	=76	=76	=76	=76	=76
!	!	!	!	!	!LO:DY:b	!LO:DY:b	!	!	!	!	!	!	!	!	!LO:DY:a	!LO:DY:a	!	!	!	!LO:DY:a	!LO:DY:a	!	!	!	!	!	!	!
8GG/	.	4.GG/	no-	no-	p	p	4.G\	no-	no-	p	p	4.B\	no-	no-	p	p	4.e\	no-	no-	p	p	2.ryy	4r	4r	8cc\]	8een\)	8c/]	8g\)
!	!	!	!	!	!	!	!	!	!	!	!	!	!	!	!	!	!	!	!	!	!	!	!	!	!LO:MO:mod=4r	!LO:MO:mod=4r	!	!LO:MO:mod=4r
8r	.	.	.	.	.	.	.	.	.	.	.	.	.	.	.	.	.	.	.	.	.	.	.	.	8r	8r	4r	8r
!	!	!	!	!	!	!	!	!	!	!	!	!	!	!	!	!	!	!	!	!	!	!	!	!	!LO:MO:mod=.	!LO:MO:mod=.	!	!LO:MO:mod=.
8r	.	.	.	.	.	.	.	.	.	.	.	.	.	.	.	.	.	.	.	.	.	.	8r	8r	4r	4r	.	8r
!	!	!	!	!	!	!	!	!	!	!	!	!	!	!	!	!	!	!	!	!	!	!	!	!	!LO:MO:null:mod=8r	!LO:MO:null:mod=8r	!	!
4r	.	4GG/	-bis	-bis,	.	.	4G\	-bis	-bis,	.	.	4B\	-bis	-bis,	.	.	4dn\	-bis	-bis,	.	.	.	8r	8r	.	.	8r	8r
.	.	.	.	.	.	.	.	.	.	.	.	.	.	.	.	.	.	.	.	.	.	.	8g/L	8dd\L	8b\L	8dd\L	8g\L	8g\L
8r	.	8r	.	.	.	.	8r	.	.	.	.	8r	.	.	.	.	8r	.	.	.	.	.	8g/J	8dd\J	8b\J	8dd\J	8g\J	8g\J
!	!	!	!	!	!	!	!	!	!	!	!	!	!	!	!	!	!	!	!	!	!	!	!	!LO:LB:g=original	!	!	!	!
=77	=77	=77	=77	=77	=77	=77	=77	=77	=77	=77	=77	=77	=77	=77	=77	=77	=77	=77	=77	=77	=77	=77	=77	=77	=77	=77	=77	=77
!	!	!	!	!	!LO:DY:b	!LO:DY:b	!	!	!	!LO:DY:a	!LO:DY:a	!	!	!	!LO:DY:b	!LO:DY:b	!	!	!	!LO:DY:a	!LO:DY:a	!	!	!	!	!	!	!
4r	.	4.AA/	do-	do-	f	f	4.D#X\	do-	do-	f	f	4.F#X/	do-	do-	f	f	4.c\	do-	do-	f	f	2.ryy	2.c/	2.cc\	4r	4r	4r	4r
8r	.	.	.	.	.	.	.	.	.	.	.	.	.	.	.	.	.	.	.	.	.	.	.	.	8r	8r	8r	8r
!	!	!	!	!	!	!	!	!	!	!	!	!	!	!	!	!	!	!	!	!	!	!	!	!	!	!	!LO:SIC:o=4.c^>/	!LO:SIC:o=4.f#X\
4.AA/	.	4AA/	-na	-na	.	.	4D#\	-na	-na	.	.	4F#/	-na	-na	.	.	4c\	-na	-na	.	.	.	.	.	[4.cc\	(4.ee-X\	[4.c/	(4.f#X\
.	.	8r	.	.	.	.	8r	.	.	.	.	8r	.	.	.	.	8r	.	.	.	.	.	.	.	.	.	.	.
!LO:LB:g=original	!	!	!	!	!	!	!	!	!	!	!	!	!	!	!	!	!	!	!	!	!	!	!	!	!	!	!	!
=78	=78	=78	=78	=78	=78	=78	=78	=78	=78	=78	=78	=78	=78	=78	=78	=78	=78	=78	=78	=78	=78	=78	=78	=78	=78	=78	=78	=78
!	!	!	!	!	!	!	!	!	!	!	!	!	!	!	!	!	!	!	!	!	!	!	!	!	!	!	!LO:SIC:o=8c/	!LO:SIC:o=8g\
8GG/	.	4.GG/	no-	no-	.	.	4.E\	no-	no-	.	.	4.G/	no-	no-	.	.	4.c\	no-	no-	.	.	2.ryy	4r	4r	8cc\]	8een\)	8c/]	8g\)
!	!	!	!	!	!	!	!	!	!	!	!	!	!	!	!	!	!	!	!	!	!	!	!	!	!LO:MO:mod=4r	!LO:MO:mod=4r	!LO:MO:mod=4r	!LO:MO:mod=4r
8r	.	.	.	.	.	.	.	.	.	.	.	.	.	.	.	.	.	.	.	.	.	.	.	.	8r	8r	8r	8r
!	!	!	!	!	!	!	!	!	!	!	!	!	!	!	!	!	!	!	!	!	!	!	!	!	!LO:MO:mod=.	!LO:MO:mod=.	!LO:MO:mod=.	!LO:MO:mod=.
8r	.	.	.	.	.	.	.	.	.	.	.	.	.	.	.	.	.	.	.	.	.	.	8r	8r	4r	4r	8r	4r
!	!	!	!	!	!	!	!	!	!	!	!	!	!	!	!	!	!	!	!	!	!	!	!	!	!LO:MO:null:mod=8r	!LO:MO:null:mod=8r	!	!LO:MO:null:mod=8r
4r	.	4GG/	-bis	-bis,	.	.	4Dn\	-bis	-bis,	.	.	4G/	-bis	-bis,	.	.	4B\	-bis	-bis,	.	.	.	8r	8r	.	.	8r	.
.	.	.	.	.	.	.	.	.	.	.	.	.	.	.	.	.	.	.	.	.	.	.	8g/L	8dd\L	8b\L	8dd\L	8g\L	8g\L
8r	.	8r	.	.	.	.	8r	.	.	.	.	8r	.	.	.	.	8r	.	.	.	.	.	8g/J	8dd\J	8b\J	8dd\J	8g\J	8g\J
!	!	!LO:LB:g=original	!	!	!	!	!	!	!	!	!	!	!	!	!	!	!	!	!	!	!	!	!	!	!	!	!	!
=79	=79	=79	=79	=79	=79	=79	=79	=79	=79	=79	=79	=79	=79	=79	=79	=79	=79	=79	=79	=79	=79	=79	=79	=79	=79	=79	=79	=79
!	!	!	!	!	!	!LO:DY:ed=brack	!	!	!	!LO:DY:a	!LO:DY:a	!	!	!	!LO:DY:b	!LO:DY:b	!	!	!	!LO:DY:b	!LO:DY:b	!	!	!	!	!	!	!
4C/	.	4C/	do-	do-	.	f	4C/	do-	do-	f	f	4c\	do-	do-	f	f	4c\	do-	do-	f	f	2.ryy	4e/	4cc\	4cc\	4cc\	4c/	4g\
8D/	.	8D/	-na	-na	.	.	8D/	-na	-na	.	.	8d\	-na	-na	.	.	8d\	-na	-na	.	.	.	8r	8r	8r	8r	8r	8r
4E/	.	4E/	no-	no-	.	.	4E\	no-	no-	.	.	4e\	no-	no-	.	.	4e\	no-	no-	.	.	.	4r	4r	4r	4r	4r	4r
8C/	.	8C/	-bis	-bis	.	.	8C\	-bis	-bis	.	.	8c\	-bis	-bis	.	.	8c\	-bis	-bis	.	.	.	8r	8r	8r	8r	8r	8r
!	!	!	!	!	!	!	!	!	!	!	!	!	!	!	!	!	!	!	!	!	!	!	!	!	!	!LO:LB:g=original	!	!
=80	=80	=80	=80	=80	=80	=80	=80	=80	=80	=80	=80	=80	=80	=80	=80	=80	=80	=80	=80	=80	=80	=80	=80	=80	=80	=80	=80	=80
*2\right	*	*	*	*	*	*	*	*	*	*	*	*	*	*	*	*	*	*	*	*	*	*	*	*	*	*	*	*
2.G\	.	2.G\	pa-	pa-	.	.	2.G\	pa-	pa-	.	.	2.B\	pa-	pa-	.	.	2.d\	pa-	pa-	.	.	2.ryy	8r	8r	8r	8r	8r	8r
.	.	.	.	.	.	.	.	.	.	.	.	.	.	.	.	.	.	.	.	.	.	.	8g/L	8dd\L	8b\L	8dd\L	8g\L	8g\L
.	.	.	.	.	.	.	.	.	.	.	.	.	.	.	.	.	.	.	.	.	.	.	8g/J	8dd\J	8b\J	8dd\J	8g\J	8g\J
*	*	*	*	*	*	*	*	*	*	*	*	*	*	*	*	*	*	*	*	*	*	*	*tremolo	*tremolo	*tremolo	*tremolo	*tremolo	*tremolo
.	.	.	.	.	.	.	.	.	.	.	.	.	.	.	.	.	.	.	.	.	.	.	8g/L	8dd\L	8b\L	8dd\L	8g\L	8g\L
.	.	.	.	.	.	.	.	.	.	.	.	.	.	.	.	.	.	.	.	.	.	.	8g/	8dd\	8b\	8dd\	8g\	8g\
.	.	.	.	.	.	.	.	.	.	.	.	.	.	.	.	.	.	.	.	.	.	.	8g/J	8dd\J	8b\J	8dd\J	8g\J	8g\J
*	*	*	*	*	*	*	*	*	*	*	*	*	*	*	*	*	*	*	*	*	*	*	*Xtremolo	*Xtremolo	*Xtremolo	*Xtremolo	*Xtremolo	*Xtremolo
!	!	!	!	!	!	!	!LO:LB:g=original	!	!	!	!	!	!	!	!	!	!	!	!	!	!	!	!LO:LB:g=original	!	!	!	!	!LO:LB:g=original
=81	=81	=81	=81	=81	=81	=81	=81	=81	=81	=81	=81	=81	=81	=81	=81	=81	=81	=81	=81	=81	=81	=81	=81	=81	=81	=81	=81	=81
!	!	!	!	!	!	!	!	!	!	!	!	!LO:SIC:v:o=4B\	!	!	!	!	!	!	!	!	!	!	!	!	!	!	!	!
4C/	.	4C/	-cem	-cem,	.	.	4E\	-cem	-cem,	.	.	4c\	-cem	-cem,	.	.	4c\	-cem	-cem,	.	.	2.ryy	4e/	4cc\	4cc\	4cc\	4e\	4g\
8r	.	8r	.	.	.	.	8E\	da	da	.	.	8c\	do-	do-	.	.	8c\	da	da	.	.	.	8r	8r	8cc\	8r	8c\	8e\
4r	.	4r	.	.	.	.	4F\	no-	no-	.	.	(4B\	-na	-na	.	.	4d\	no-	no-	.	.	.	4r	4r	4b\	4r	4d\	4f\
8r	.	8r	.	.	.	.	8G\	-bis	-bis	.	.	8B-X\)	.	.	.	.	8e\	-bis	-bis	.	.	.	8r	8r	8b-X\	8r	8e\	8g\
!	!	!	!	!	!	!	!	!	!	!	!	!	!	!	!	!	!LO:LB:g=original	!	!	!	!	!	!	!	!	!	!LO:LB:g=original	!
=82	=82	=82	=82	=82	=82	=82	=82	=82	=82	=82	=82	=82	=82	=82	=82	=82	=82	=82	=82	=82	=82	=82	=82	=82	=82	=82	=82	=82
*	*	*	*	*	*	*	*	*	*	*	*	*^	*	*	*	*	*	*	*	*	*	*	*	*	*	*	*	*
!	!	!LO:SIC:o=2.F\	!	!	!	!	!LO:SIC:o=4.F\	!	!	!	!	!	!	!	!	!	!	!LO:SIC:o=[2.f\	!	!	!	!	!	!	!	!	!	!	!
2.F\	.	([2.F\	pa-	pa-	.	.	(4.F\	pa-	pa-	.	.	4.A/	2.A\	no-	no-	.	.	([2.f\	pa-	pa-	.	.	2.ryy	8r	8r	4a\	8r	2.f\	2.a\
.	.	.	.	.	.	.	.	.	.	.	.	.	.	.	.	.	.	.	.	.	.	.	.	8c/L	8cc\L	.	8cc\L	.	.
.	.	.	.	.	.	.	.	.	.	.	.	.	.	.	.	.	.	.	.	.	.	.	.	8c/J	8cc\J	8r	8cc\J	.	.
*	*	*	*	*	*	*	*	*	*	*	*	*	*	*	*	*	*	*	*	*	*	*	*	*tremolo	*tremolo	*	*tremolo	*	*
!	!	!	!	!	!	!	!LO:SIC:o=4.A\	!	!	!	!	!	!	!	!	!	!	!	!	!	!	!	!	!	!	!	!	!	!
.	.	.	.	.	.	.	[4.A\	.	.	.	.	4.c/	.	-bis	-bis	.	.	.	.	.	.	.	.	8c/L	8cc\L	4r	8cc\L	.	.
.	.	.	.	.	.	.	.	.	.	.	.	.	.	.	.	.	.	.	.	.	.	.	.	8c/	8cc\	.	8cc\	.	.
.	.	.	.	.	.	.	.	.	.	.	.	.	.	.	.	.	.	.	.	.	.	.	.	8c/J	8cc\J	8r	8cc\J	.	.
*	*	*	*	*	*	*	*	*	*	*	*	*	*	*	*	*	*	*	*	*	*	*	*	*Xtremolo	*Xtremolo	*	*Xtremolo	*	*
!	!	!	!	!	!	!	!	!	!	!	!	!LO:LB:g=original	!	!	!	!	!	!	!	!	!	!	!	!	!	!LO:LB:g=original	!	!	!
=83	=83	=83	=83	=83	=83	=83	=83	=83	=83	=83	=83	=83	=83	=83	=83	=83	=83	=83	=83	=83	=83	=83	=83	=83	=83	=83	=83	=83	=83
!LO:SIC:o=4.F\	!	!LO:SIC:o=[4.F\	!	!	!	!	!LO:SIC:o=[4.A\	!	!	!	!	!LO:N:vis=2	!	!	!	!	!	!LO:SIC:o=4.f\]	!	!	!	!	!	!	!	!	!	!LO:SIC:o=(4.f\	!LO:SIC:o=4.a\
[4.F\	.	4.F\_	.	.	.	.	4.A\_	.	.	.	.	2.c/	4.A\	pa-	pa-	.	.	4.f\_	.	.	.	.	2.ryy	[>2.c/	[2.cc\	[>2.c/	[2.cc\	([4.f\	([4.a\
!LO:SIC:o=4F\	!	!	!	!	!	!	!	!	!	!	!	!	!	!	!	!	!	!LO:SIC:o=4f\	!	!	!	!	!	!	!	!	!	!LO:SIC:o=4f\	!LO:SIC:o=4a\
4F\]	.	4F\]	.	.	.	.	4A\]	.	.	.	.	.	4.c\	.	.	.	.	4f\]	.	.	.	.	.	.	.	.	.	4f\]	4a\]
!	!	!LO:SIC:o=8C\	!	!	!	!	!LO:SIC:o=8G\	!	!	!	!	!	!	!	!	!	!	!LO:SIC:o=8e\	!	!	!	!	!	!	!	!	!	!	!LO:SIC:o=8g\
8C\	.	8C\)	.	.	.	.	8G\)	.	.	.	.	.	.	.	.	.	.	8e\)	.	.	.	.	.	.	.	.	.	8e\)	8g\)
*	*	*	*	*	*	*	*	*	*	*	*	*v	*v	*	*	*	*	*	*	*	*	*	*	*	*	*	*	*	*
=84	=84	=84	=84	=84	=84	=84	=84	=84	=84	=84	=84	=84	=84	=84	=84	=84	=84	=84	=84	=84	=84	=84	=84	=84	=84	=84	=84	=84
2C/	.	2C/	-cem.	-cem.	.	.	2G\	-cem.	-cem.	.	.	2c\	-cem.	-cem.	.	.	2e\	-cem.	-cem.	.	.	2.ryy	2c/]	2cc\]	2c/]	2cc\]	2e\	2g\
!	!	!	!	!	!	!	!	!	!	!	!	!	!	!	!	!	!	!	!	!	!	!	!LO:SIC:o=8ryy	!LO:SIC:o=8ryy	!	!	!LO:MO:mod=8r	!
8r	.	8r	.	.	.	.	8r	.	.	.	.	8r	.	.	.	.	8r	.	.	.	.	.	8r	8r	8r	8r	4r	8r
!	!	!	!	!	!	!	!LO:N:vis=4	!	!	!	!	!	!	!	!	!	!	!	!	!	!	!	!LO:SIC:o=8ryy	!LO:SIC:o=8ryy	!	!	!LO:MO:null:mod=8r	!
8r	.	8r	.	.	.	.	8r	.	.	.	.	8r	.	.	.	.	8r	.	.	.	.	.	8r	8r	8r	8r	.	8r
!	!	!	!	!	!	!	!	!	!	!	!	!LO:TX:b:i:t=fine:mod=	!	!	!	!	!LO:TX:b:i:t=fine:mod=	!	!	!	!	!	!	!LO:TX:b:i:t=Fine:mod=	!	!	!	!
==	==	==	==	==	==	==	==	==	==	==	==	==	==	==	==	==	==	==	==	==	==	==	==	==	==	==	==	==
*-	*-	*-	*-	*-	*-	*-	*-	*-	*-	*-	*-	*-	*-	*-	*-	*-	*-	*-	*-	*-	*-	*-	*-	*-	*-	*-	*-	*-
!!!system-decoration: [(g1)][(g2)][(g3)]g4
!!!RDF**kern: <= below
!!!RDF**kern: >= above
!!!filter-modern: sic -sq | shed -e "s/LO:DY:(a|b|rj)/LO:dy:$1/L" | autostem -r | tie -s | shed -k -e "s/[<>]//g" | shed -e "s/N:vis=/N:VIS=/L" | shed -e "s/t=P:/T=P:/L" | shed -e "s/^(X?)rep$/$1REP/I" | shed -e "s/^(\d+[\/\\]right)/$1yy/I; s/^(\d+[\/\\]left)/$1yy/I" | modori -m
!!!ENC: Anna Matuszewska
!!!END: 2020-06-17
!!!EED: Anna Matuszewska
!!!EEV: 2020-06-17
!!!ENC-modern: Katarzyna Serwa
!!!END-modern: 2022-08-09
